; generated by PrusaSlicer 2.9.4 on 2026-01-05 at 22:40:20 UTC

; 

; external perimeters extrusion width = 0.45mm
; perimeters extrusion width = 0.45mm
; infill extrusion width = 0.45mm
; solid infill extrusion width = 0.45mm
; top infill extrusion width = 0.40mm
; support material extrusion width = 0.35mm
; first layer extrusion width = 0.42mm

; external perimeters extrusion width = 0.45mm
; perimeters extrusion width = 0.45mm
; infill extrusion width = 0.45mm
; solid infill extrusion width = 0.45mm
; top infill extrusion width = 0.40mm
; support material extrusion width = 0.35mm
; first layer extrusion width = 0.42mm

M190 S60 ; set bed temperature and wait for it to be reached
M104 S190 ; set temperature
;TYPE:Custom
G28 ; home all axes
G1 Z5 F5000 ; lift nozzle
M109 S190 ; set temperature and wait for it to be reached
G21 ; set units to millimeters
G90 ; use absolute coordinates
M83 ; use relative distances for extrusion
; Filament gcode
M107
;LAYER_CHANGE
;Z:0.3
;HEIGHT:0.3
G1 E-5.5 F3600
G1 Z.5 F8400
G1 X90.11 Y66.42
G1 Z.3
G1 E5.5 F2400
;TYPE:Skirt/Brim
;WIDTH:0.42
G1 F1800
G1 X94.211 Y62.32 E.23149
G1 X95.091 Y61.955 E.03803
G1 X124.876 Y61.955 E1.189
G1 X125.594 Y62.183 E.03007
G1 X164.645 Y89.724 E1.90758
G1 X166.254 Y90.994 E.08183
G1 X167.444 Y92.15 E.06623
G1 X168.767 Y93.732 E.08233
G1 X170.096 Y95.8 E.09813
G1 X170.986 Y97.662 E.08238
G1 X171.674 Y99.677 E.085
G1 X172.1 Y101.617 E.07929
G1 X172.284 Y103.2 E.06362
G1 X172.315 Y105.259 E.0822
G1 X172.101 Y107.382 E.08518
G1 X171.544 Y109.775 E.09808
G1 X170.831 Y111.705 E.08213
G1 X169.901 Y113.547 E.08237
G1 X168.768 Y115.267 E.08222
G1 X167.445 Y116.85 E.08236
G1 X125.747 Y157.689 E2.32992
G1 X124.876 Y158.045 E.03756
G1 X95.091 Y158.045 E1.189
G1 X94.211 Y157.68 E.03803
G1 X90.11 Y153.58 E.23149
G1 X89.746 Y152.699 E.03805
G1 X89.746 Y67.301 E3.40903
G1 X90.087 Y66.476 E.03564
G1 X90.362 Y66.672 F8400
G1 F1800
G1 X94.462 Y62.571 E.23149
G1 X95.091 Y62.311 E.02717
G1 X124.876 Y62.311 E1.189
G1 X125.389 Y62.473 E.02148
G1 X164.44 Y90.014 E1.90758
G1 X166.021 Y91.263 E.08043
G1 X167.182 Y92.391 E.06462
G1 X168.479 Y93.941 E.08068
G1 X169.787 Y95.975 E.09654
G1 X170.658 Y97.8 E.08072
G1 X171.328 Y99.757 E.08257
G1 X171.75 Y101.678 E.07851
G1 X171.931 Y103.24 E.06277
G1 X171.96 Y105.259 E.08061
G1 X171.75 Y107.321 E.08274
G1 X171.203 Y109.675 E.09647
G1 X170.504 Y111.567 E.08052
G1 X169.591 Y113.373 E.08078
G1 X168.481 Y115.058 E.08055
G1 X167.183 Y116.609 E.08074
G1 X125.498 Y157.435 E2.32918
G1 X124.876 Y157.689 E.02682
G1 X95.091 Y157.689 E1.189
G1 X94.462 Y157.429 E.02717
G1 X90.362 Y153.328 E.23149
G1 X90.101 Y152.699 E.02719
G1 X90.101 Y67.301 E3.40903
G1 X90.339 Y66.727 E.02481
G1 X90.613 Y66.923 F8400
G1 F1800
G1 X94.714 Y62.823 E.23149
G1 X95.091 Y62.667 E.01629
G1 X124.876 Y62.667 E1.189
G1 X125.184 Y62.764 E.01289
G1 X164.235 Y90.305 E1.90758
G1 X165.486 Y91.27 E.06307
G1 X166.899 Y92.609 E.07771
G1 X168.192 Y94.15 E.0803
G1 X169.28 Y95.802 E.07896
G1 X170.331 Y97.938 E.09503
G1 X170.982 Y99.838 E.08018
G1 X171.399 Y101.738 E.07765
G1 X171.577 Y103.281 E.062
G1 X171.604 Y105.259 E.07897
G1 X171.4 Y107.261 E.08033
G1 X170.862 Y109.575 E.09484
G1 X170.176 Y111.429 E.07891
G1 X169.281 Y113.198 E.07914
G1 X168.193 Y114.849 E.07893
G1 X166.921 Y116.369 E.07912
G1 X125.249 Y157.181 E2.32842
G1 X124.876 Y157.333 E.01608
G1 X95.091 Y157.333 E1.189
G1 X94.714 Y157.177 E.01629
G1 X90.613 Y153.077 E.23149
G1 X90.457 Y152.699 E.01632
G1 X90.457 Y67.301 E3.40903
G1 X90.59 Y66.979 E.01391
G1 X90.865 Y67.175 F8400
G1 F1800
G1 X94.965 Y63.074 E.23149
G1 X95.091 Y63.022 E.00544
G1 X124.979 Y63.055 E1.19311
G1 X164.03 Y90.596 E1.90758
G1 X165.253 Y91.538 E.06162
G1 X166.651 Y92.864 E.07692
G1 X167.904 Y94.359 E.07787
G1 X168.971 Y95.977 E.07737
G1 X170.003 Y98.077 E.09341
G1 X170.635 Y99.918 E.0777
G1 X171.049 Y101.799 E.07689
G1 X171.224 Y103.321 E.06116
G1 X171.248 Y105.259 E.07737
G1 X171.049 Y107.2 E.07789
G1 X170.52 Y109.475 E.09324
G1 X169.849 Y111.29 E.07725
G1 X168.972 Y113.023 E.07753
G1 X167.905 Y114.64 E.07734
G1 X166.659 Y116.128 E.07747
G1 X125.001 Y156.927 E2.32766
G1 X124.876 Y156.978 E.00539
G1 X95.091 Y156.978 E1.189
G1 X94.965 Y156.926 E.00544
G1 X90.865 Y152.825 E.23149
G1 X90.812 Y152.699 E.00546
G1 X90.812 Y67.301 E3.40903
G1 X90.842 Y67.23 E.00308
G1 X91.944 Y67.706 F8400
G1 F1800
G1 X92.356 Y66.749 E.04159
G1 X93.638 Y65.236 E.07916
G1 X95.292 Y64.165 E.07866
G1 X97.165 Y63.654 E.0775
G1 X122.71 Y63.641 E1.01974
G1 X123.99 Y63.902 E.05215
G1 X125.167 Y64.399 E.051
G1 X126.866 Y65.768 E.0871
G1 X128.024 Y67.532 E.08424
G1 X128.556 Y69.64 E.08679
G1 X128.556 Y150.256 E3.21814
G1 X128.38 Y151.467 E.04885
G1 X127.581 Y153.299 E.07979
G1 X126.286 Y154.802 E.0792
G1 X124.619 Y155.86 E.07882
G1 X122.755 Y156.352 E.07696
G1 X97.535 Y156.379 E1.00677
G1 X96.324 Y156.204 E.04884
G1 X94.446 Y155.375 E.08195
G1 X92.917 Y154.026 E.0814
G1 X91.883 Y152.331 E.07926
G1 X91.411 Y150.358 E.08098
G1 X91.411 Y69.744 E3.21806
G1 X91.587 Y68.533 E.04885
G1 X91.92 Y67.761 E.03356
G1 X92.243 Y67.901 F8400
G1 F1800
G1 X92.671 Y66.916 E.04287
G1 X93.891 Y65.487 E.07501
G1 X95.46 Y64.479 E.07445
G1 X97.234 Y64.004 E.07331
G1 X122.657 Y63.993 E1.01487
G1 X123.869 Y64.237 E.04935
G1 X125.005 Y64.716 E.04921
G1 X126.62 Y66.026 E.08301
G1 X127.71 Y67.7 E.07974
G1 X128.2 Y69.661 E.08069
G1 X128.2 Y150.243 E3.21678
G1 X128.032 Y151.391 E.04632
G1 X127.267 Y153.13 E.07584
G1 X126.035 Y154.548 E.07499
G1 X124.453 Y155.544 E.07463
G1 X122.688 Y156.002 E.07279
G1 X97.548 Y156.023 E1.00357
G1 X96.399 Y155.855 E.04636
G1 X94.659 Y155.089 E.07589
G1 X93.206 Y153.816 E.07711
G1 X92.222 Y152.219 E.07488
G1 X91.767 Y150.336 E.07733
G1 X91.767 Y69.757 E3.21666
G1 X91.935 Y68.609 E.04632
G1 X92.219 Y67.956 E.02843
G1 X92.541 Y68.097 F8400
G1 F1800
G1 X92.986 Y67.084 E.04417
G1 X94.143 Y65.739 E.07082
G1 X95.627 Y64.794 E.07023
G1 X97.302 Y64.354 E.06913
G1 X122.606 Y64.346 E1.01012
G1 X123.748 Y64.572 E.04647
G1 X124.843 Y65.034 E.04744
G1 X126.373 Y66.283 E.07884
G1 X127.395 Y67.868 E.07528
G1 X127.844 Y69.683 E.07464
G1 X127.844 Y150.23 E3.21538
G1 X127.684 Y151.315 E.04378
G1 X126.953 Y152.961 E.0719
G1 X125.785 Y154.294 E.07075
G1 X124.289 Y155.227 E.07038
G1 X122.622 Y155.652 E.06867
G1 X97.561 Y155.668 E1.00042
G1 X96.475 Y155.507 E.04383
G1 X94.829 Y154.776 E.0719
G1 X93.462 Y153.567 E.07285
G1 X92.54 Y152.058 E.07059
G1 X92.123 Y150.316 E.0715
G1 X92.123 Y69.77 E3.21534
G1 X92.283 Y68.685 E.04378
G1 X92.517 Y68.152 E.02324
G1 X92.842 Y68.295 F8400
G1 F1800
G1 X93.301 Y67.252 E.04549
G1 X94.394 Y65.992 E.06659
G1 X95.793 Y65.11 E.06602
G1 X97.369 Y64.703 E.06498
G1 X122.554 Y64.698 E1.00537
G1 X123.66 Y64.917 E.04501
G1 X124.68 Y65.351 E.04425
G1 X126.126 Y66.54 E.07473
G1 X127.057 Y67.983 E.06855
G1 X127.489 Y69.705 E.07087
G1 X127.489 Y150.218 E3.21403
G1 X127.348 Y151.195 E.03941
G1 X126.666 Y152.748 E.06771
G1 X125.573 Y154.008 E.06659
G1 X124.174 Y154.89 E.06602
G1 X122.556 Y155.302 E.06665
G1 X97.573 Y155.312 E.9973
G1 X96.595 Y155.172 E.03944
G1 X95.042 Y154.49 E.06771
G1 X93.75 Y153.357 E.0686
G1 X92.879 Y151.947 E.06616
G1 X92.478 Y150.294 E.0679
G1 X92.478 Y69.782 E3.21399
G1 X92.619 Y68.805 E.03941
G1 X92.818 Y68.35 E.01982
G1 X93.139 Y68.493 F8400
G1 F1800
G1 X93.614 Y67.421 E.04681
G1 X94.644 Y66.247 E.06235
G1 X95.957 Y65.427 E.0618
G1 X97.434 Y65.054 E.06081
G1 X122.503 Y65.05 E1.00074
G1 X123.538 Y65.252 E.0421
G1 X124.516 Y65.668 E.04243
G1 X125.877 Y66.796 E.07056
G1 X126.742 Y68.149 E.06411
G1 X127.133 Y69.726 E.06486
G1 X127.133 Y150.204 E3.21263
G1 X127 Y151.119 E.03691
G1 X126.353 Y152.579 E.06375
G1 X125.323 Y153.753 E.06235
G1 X124.01 Y154.573 E.0618
G1 X122.491 Y154.951 E.06249
G1 X97.586 Y154.956 E.99419
G1 X96.671 Y154.823 E.03691
G1 X95.211 Y154.176 E.06375
G1 X94.037 Y153.147 E.06232
G1 X93.217 Y151.834 E.0618
G1 X92.834 Y150.273 E.06416
G1 X92.834 Y69.795 E3.21263
G1 X92.967 Y68.881 E.03687
G1 X93.115 Y68.547 E.01458
G1 X93.435 Y68.691 F8400
G1 F1800
G1 X93.927 Y67.592 E.04807
G1 X94.892 Y66.503 E.05808
G1 X96.119 Y65.744 E.05759
G1 X97.498 Y65.404 E.0567
G1 X122.453 Y65.403 E.99619
G1 X123.417 Y65.586 E.03917
G1 X124.353 Y65.985 E.04062
G1 X125.627 Y67.05 E.06629
G1 X126.425 Y68.314 E.05967
G1 X126.778 Y69.747 E.05891
G1 X126.778 Y150.191 E3.21127
G1 X126.652 Y151.043 E.03438
G1 X126.04 Y152.408 E.05972
G1 X125.075 Y153.497 E.05808
G1 X123.848 Y154.255 E.05757
G1 X122.428 Y154.601 E.05834
G1 X97.599 Y154.601 E.99116
G1 X96.748 Y154.475 E.03434
G1 X95.382 Y153.863 E.05975
G1 X94.293 Y152.898 E.05808
G1 X93.535 Y151.671 E.05757
G1 X93.189 Y150.251 E.05834
G1 X93.189 Y69.809 E3.21119
G1 X93.315 Y68.957 E.03438
G1 X93.41 Y68.746 E.00924
G1 X93.734 Y68.889 F8400
G1 F1800
G1 X94.212 Y67.807 E.04722
G1 X95.14 Y66.759 E.05588
G1 X96.28 Y66.063 E.05332
G1 X97.56 Y65.755 E.05256
G1 X122.436 Y65.758 E.99303
G1 X123.33 Y65.932 E.03636
G1 X124.187 Y66.301 E.03725
G1 X125.376 Y67.304 E.0621
G1 X126.088 Y68.428 E.05311
G1 X126.422 Y69.769 E.05517
G1 X126.422 Y150.179 E3.20991
G1 X126.317 Y150.922 E.02995
G1 X125.755 Y152.193 E.05548
G1 X124.827 Y153.241 E.05588
G1 X123.687 Y153.937 E.05332
G1 X122.407 Y154.245 E.05256
G1 X97.611 Y154.245 E.98984
G1 X96.868 Y154.14 E.02995
G1 X95.597 Y153.578 E.05548
G1 X94.549 Y152.65 E.05588
G1 X93.853 Y151.51 E.05332
G1 X93.545 Y150.231 E.05252
G1 X93.545 Y69.821 E3.20991
G1 X93.65 Y69.078 E.02995
G1 X93.71 Y68.944 E.00586
G1 X94.029 Y69.086 F8400
G1 F1800
G1 X94.525 Y67.978 E.04846
G1 X95.387 Y67.016 E.05156
G1 X96.392 Y66.402 E.04701
G1 X97.582 Y66.11 E.04891
G1 X122.418 Y66.114 E.99144
G1 X123.241 Y66.277 E.03349
G1 X124.021 Y66.616 E.03395
G1 X125.124 Y67.556 E.05785
G1 X125.771 Y68.592 E.04876
G1 X126.066 Y69.791 E.04929
G1 X126.066 Y150.166 E3.20852
G1 X125.968 Y150.846 E.02743
G1 X125.442 Y152.022 E.05143
G1 X124.58 Y152.984 E.05156
G1 X123.575 Y153.598 E.04701
G1 X122.386 Y153.89 E.04887
G1 X97.624 Y153.89 E.98848
G1 X96.944 Y153.792 E.02743
G1 X95.768 Y153.265 E.05144
G1 X94.806 Y152.403 E.05156
G1 X94.192 Y151.399 E.04698
G1 X93.901 Y150.209 E.0489
G1 X93.901 Y69.834 E3.20852
G1 X93.999 Y69.154 E.02743
G1 X94.004 Y69.141 E.00056
G1 X94.347 Y69.231 F8400
G1 F1800
G1 X94.837 Y68.151 E.04734
G1 X95.632 Y67.275 E.04722
G1 X96.551 Y66.72 E.04286
G1 X97.603 Y66.466 E.0432
G1 X122.4 Y66.469 E.98988
G1 X123.151 Y66.621 E.03059
G1 X123.852 Y66.93 E.03058
G1 X124.871 Y67.807 E.05367
G1 X125.453 Y68.754 E.04437
G1 X125.711 Y69.812 E.04347
G1 X125.711 Y150.153 E3.20716
G1 X125.62 Y150.769 E.02486
G1 X125.13 Y151.849 E.04734
G1 X124.335 Y152.725 E.04722
G1 X123.416 Y153.28 E.04286
G1 X122.365 Y153.534 E.04316
G1 X97.637 Y153.534 E.98713
G1 X97.021 Y153.443 E.02486
G1 X95.941 Y152.954 E.04733
G1 X95.065 Y152.158 E.04725
G1 X94.511 Y151.239 E.04284
G1 X94.256 Y150.188 E.04317
G1 X94.256 Y69.847 E3.20716
G1 X94.338 Y69.29 E.02247
G1 X94.69 Y69.343 F8400
G1 F1800
G1 X94.695 Y69.309 E.00137
G1 X95.147 Y68.326 E.04319
G1 X95.875 Y67.535 E.04291
G1 X96.709 Y67.04 E.03872
G1 X97.623 Y66.822 E.03751
G1 X122.381 Y66.825 E.98832
G1 X123.06 Y66.965 E.02768
G1 X123.682 Y67.244 E.02721
G1 X124.616 Y68.056 E.0494
G1 X125.134 Y68.913 E.03997
G1 X125.355 Y69.833 E.03777
G1 X125.355 Y150.14 E3.2058
G1 X125.272 Y150.691 E.02224
G1 X124.82 Y151.674 E.04319
G1 X124.092 Y152.465 E.04291
G1 X123.258 Y152.96 E.03872
G1 X122.344 Y153.178 E.03751
G1 X97.651 Y153.178 E.98573
G1 X97.099 Y153.096 E.02228
G1 X96.116 Y152.643 E.04321
G1 X95.326 Y151.915 E.04288
G1 X94.83 Y151.081 E.03874
G1 X94.612 Y150.167 E.03751
G1 X94.612 Y69.86 E3.2058
G1 X94.681 Y69.402 E.01849
G1 X95.032 Y69.456 F8400
G1 F1800
G1 X95.042 Y69.389 E.0027
G1 X95.457 Y68.503 E.03906
G1 X96.116 Y67.798 E.03852
G1 X96.865 Y67.361 E.03462
G1 X97.643 Y67.177 E.03191
G1 X122.363 Y67.181 E.98681
G1 X122.932 Y67.298 E.02319
G1 X123.512 Y67.557 E.02536
G1 X124.359 Y68.303 E.04506
G1 X124.814 Y69.071 E.03563
G1 X125 Y69.853 E.03209
G1 X125 Y150.126 E3.20444
G1 X124.925 Y150.611 E.01959
G1 X124.51 Y151.497 E.03906
G1 X123.851 Y152.202 E.03852
G1 X123.102 Y152.639 E.03462
G1 X122.324 Y152.823 E.03191
G1 X97.665 Y152.823 E.98437
G1 X97.179 Y152.748 E.01963
G1 X96.294 Y152.333 E.03902
G1 X95.588 Y151.674 E.03855
G1 X95.151 Y150.926 E.03458
G1 X94.968 Y150.147 E.03194
G1 X94.968 Y69.874 E3.20444
G1 X95.023 Y69.515 E.0145
G1 X95.369 Y69.565 F8400
G1 F1800
G1 X95.377 Y69.512 E.00214
G1 X95.737 Y68.725 E.03455
G1 X96.357 Y68.061 E.03627
G1 X97.018 Y67.683 E.0304
G1 X97.663 Y67.533 E.02644
G1 X122.344 Y67.536 E.98525
G1 X122.839 Y67.641 E.0202
G1 X123.339 Y67.869 E.02194
G1 X124.1 Y68.549 E.04074
G1 X124.493 Y69.225 E.03121
G1 X124.644 Y69.873 E.02656
G1 X124.644 Y150.114 E3.20317
G1 X124.591 Y150.488 E.01508
G1 X124.23 Y151.275 E.03456
G1 X123.61 Y151.939 E.03627
G1 X122.949 Y152.317 E.0304
G1 X122.304 Y152.467 E.02644
G1 X97.676 Y152.467 E.98313
G1 X97.302 Y152.414 E.01508
G1 X96.515 Y152.053 E.03456
G1 X95.851 Y151.433 E.03627
G1 X95.473 Y150.772 E.0304
G1 X95.323 Y150.127 E.02644
G1 X95.323 Y69.886 E3.20317
G1 X95.361 Y69.624 E.01057
G1 X95.724 Y69.624 F8400
G1 F1800
G1 X95.724 Y69.591 E.00132
G1 X96.046 Y68.903 E.03032
G1 X96.595 Y68.327 E.03176
G1 X97.168 Y68.006 E.02622
G1 X97.683 Y67.888 E.02109
G1 X122.324 Y67.892 E.98365
G1 X123.164 Y68.18 E.03545
G1 X123.839 Y68.792 E.03637
G1 X124.17 Y69.377 E.02683
G1 X124.288 Y69.893 E.02113
G1 X124.243 Y150.409 E3.21415
G1 X123.921 Y151.097 E.03032
G1 X123.372 Y151.673 E.03176
G1 X122.799 Y151.994 E.02622
G1 X122.284 Y152.112 E.02109
G1 X97.381 Y152.066 E.99411
G1 X96.693 Y151.744 E.03032
G1 X96.117 Y151.195 E.03176
G1 X95.796 Y150.622 E.02622
G1 X95.679 Y150.107 E.02108
G1 X95.724 Y69.684 E3.21043
G1 X96.062 Y69.736 F8400
G1 F1800
G1 X96.071 Y69.672 E.00258
G1 X96.353 Y69.084 E.02603
G1 X96.83 Y68.595 E.02727
G1 X97.315 Y68.33 E.02206
G1 X97.702 Y68.244 E.01583
G1 X122.303 Y68.248 E.98206
G1 X122.987 Y68.489 E.02895
G1 X123.575 Y69.032 E.03195
G1 X123.846 Y69.525 E.02246
G1 X123.933 Y69.912 E.01583
G1 X123.933 Y150.087 E3.20053
G1 X123.896 Y150.328 E.00973
G1 X123.614 Y150.916 E.02603
G1 X123.137 Y151.405 E.02727
G1 X122.652 Y151.67 E.02206
G1 X122.265 Y151.756 E.01583
G1 X97.704 Y151.756 E.98046
G1 X97.462 Y151.719 E.00977
G1 X96.874 Y151.437 E.02603
G1 X96.385 Y150.961 E.02724
G1 X96.121 Y150.475 E.02208
G1 X96.034 Y150.088 E.01583
G1 X96.034 Y69.913 E3.20053
G1 X96.052 Y69.795 E.00476
G1 X96.418 Y69.795 F8400
G1 F1800
G1 X96.418 Y69.756 E.00156
G1 X96.658 Y69.269 E.02167
G1 X97.06 Y68.867 E.02269
G1 X97.72 Y68.6 E.02842
G1 X122.282 Y68.603 E.9805
G1 X122.809 Y68.798 E.02243
G1 X123.309 Y69.269 E.02742
G1 X123.577 Y69.93 E.02847
G1 X123.549 Y150.244 E3.20608
G1 X123.309 Y150.731 E.02167
G1 X122.907 Y151.133 E.02269
G1 X122.247 Y151.4 E.02842
G1 X97.547 Y151.372 E.98601
G1 X97.059 Y151.132 E.02171
G1 X96.657 Y150.73 E.02269
G1 X96.39 Y150.07 E.02842
G1 X96.418 Y69.855 E3.20213
G1 X96.746 Y69.945 F8400
G1 F1800
G1 X96.931 Y69.499 E.01927
G1 X97.291 Y69.139 E.02032
G1 X97.738 Y68.955 E.0193
G1 X122.261 Y68.959 E.97894
G1 X122.629 Y69.106 E.01582
G1 X123.038 Y69.502 E.02273
G1 X123.192 Y69.805 E.01357
G1 X123.221 Y150.055 E3.20353
G1 X123.036 Y150.501 E.01927
G1 X122.676 Y150.861 E.02032
G1 X122.371 Y151.015 E.01364
G1 X97.735 Y151.045 E.98345
G1 X97.29 Y150.86 E.01924
G1 X96.93 Y150.5 E.02032
G1 X96.775 Y150.195 E.01366
G1 X96.746 Y70.005 E3.20113
G1 X97.107 Y70.005 F8400
G1 F1800
G1 X97.107 Y69.934 E.00283
G1 X97.205 Y69.728 E.00911
G1 X97.519 Y69.414 E.01773
G1 X97.755 Y69.311 E.01028
G1 X122.242 Y69.317 E.9775
G1 X122.448 Y69.414 E.00909
G1 X122.763 Y69.728 E.01775
G1 X122.866 Y69.964 E.01028
G1 X122.86 Y150.066 E3.19762
G1 X122.763 Y150.272 E.00909
G1 X122.448 Y150.586 E.01775
G1 X122.212 Y150.689 E.01028
G1 X97.725 Y150.683 E.9775
G1 X97.519 Y150.586 E.00909
G1 X97.205 Y150.272 E.01773
G1 X97.101 Y150.036 E.0103
G1 X97.107 Y70.065 E3.19239
G1 X97.457 Y70.065 F8400
G1 F1800
G1 X97.457 Y70.017 E.00192
G1 X97.808 Y69.667 E.01979
G1 X122.159 Y69.667 E.97208
G1 X122.51 Y70.017 E.01979
G1 X122.51 Y149.983 E3.19219
