; generated by PrusaSlicer 2.9.4 on 2026-01-10 at 21:11:58 UTC

; 

; external perimeters extrusion width = 0.45mm
; perimeters extrusion width = 0.45mm
; infill extrusion width = 0.45mm
; solid infill extrusion width = 0.45mm
; top infill extrusion width = 0.40mm
; support material extrusion width = 0.35mm
; first layer extrusion width = 0.42mm

M190 S60 ; set bed temperature and wait for it to be reached
M104 S190 ; set temperature
;TYPE:Custom
G28 ; home all axes
G1 Z5 F5000 ; lift nozzle
M109 S190 ; set temperature and wait for it to be reached
G21 ; set units to millimeters
G90 ; use absolute coordinates
M83 ; use relative distances for extrusion
; Filament gcode
M107
;LAYER_CHANGE
;Z:0.3
;HEIGHT:0.3
G1 E-5.5 F3600
G1 Z.5 F8400
G1 X64.753 Y70.064
G1 Z.3
G1 E5.5 F2400
;TYPE:Skirt/Brim
;WIDTH:0.42
G1 F1800
G1 X65.614 Y69.718 E.03704
G1 X101.614 Y69.718 E1.4371
G1 X102.513 Y70.102 E.03902
G1 X102.859 Y70.963 E.03704
G1 X102.859 Y105.963 E1.39718
G1 X102.475 Y106.862 E.03902
G1 X101.614 Y107.207 E.03703
G1 X65.614 Y107.207 E1.4371
G1 X64.715 Y106.824 E.03901
G1 X64.369 Y105.963 E.03704
G1 X64.369 Y70.963 E1.39718
G1 X64.73 Y70.119 E.03664
G1 X65.071 Y70.296 F8400
G1 F1800
G1 X65.102 Y70.236 E.0027
G1 X65.614 Y70.074 E.02144
G1 X101.614 Y70.074 E1.4371
G1 X102.341 Y70.451 E.03269
G1 X102.503 Y70.963 E.02144
G1 X102.503 Y105.963 E1.39718
G1 X102.125 Y106.69 E.03271
G1 X101.614 Y106.852 E.0214
G1 X65.614 Y106.852 E1.4371
G1 X64.887 Y106.474 E.03271
G1 X64.725 Y105.963 E.0214
G1 X64.725 Y70.963 E1.39718
G1 X65.043 Y70.349 E.0276
G1 X65.369 Y70.675 F8400
G1 F1800
G1 X65.614 Y70.429 E.01386
G1 X101.614 Y70.429 E1.4371
G1 X102.147 Y70.963 E.03012
G1 X102.147 Y105.963 E1.39718
G1 X101.614 Y106.496 E.03009
G1 X65.614 Y106.496 E1.4371
G1 X65.08 Y105.963 E.03012
G1 X65.08 Y70.963 E1.39718
G1 X65.326 Y70.717 E.01389
G1 X65.504 Y70.895 F8400
G1 F1800
G1 X65.614 Y70.785 E.00621
G1 X101.614 Y70.785 E1.4371
G1 X101.792 Y70.963 E.01005
G1 X101.792 Y105.963 E1.39718
G1 X101.614 Y106.141 E.01005
G1 X65.614 Y106.141 E1.4371
G1 X65.436 Y105.963 E.01005
G1 X65.436 Y70.963 E1.39718
G1 X65.462 Y70.937 E.00147
G1 E-3.85 F3600
;WIPE_START
G1 F6720
G1 X65.504 Y70.895 E-.03023
G1 X65.614 Y70.785 E-.07917
G1 X68.641 Y70.785 E-1.5406
;WIPE_END
G1 Z.5 F8400
G1 X99.664 Y72.191
G1 Z.3
G1 E5.5 F2400
;TYPE:Solid infill
;WIDTH:0.421493
G1 F1800
G1 X100.226 Y72.753 E.03186
G1 X100.226 Y73.258 E.02024
G1 X99.319 Y72.351 E.05142
G1 X98.814 Y72.351 E.02024
G1 X100.226 Y73.763 E.08005
G1 X100.226 Y74.268 E.02024
G1 X98.309 Y72.351 E.10868
G1 X97.804 Y72.351 E.02024
G1 X100.226 Y74.773 E.13731
G1 X100.226 Y75.278 E.02024
G1 X97.299 Y72.351 E.16594
G1 X96.794 Y72.351 E.02024
G1 X100.226 Y75.783 E.19456
G1 X100.226 Y76.288 E.02024
G1 X96.289 Y72.351 E.22319
G1 X95.784 Y72.351 E.02024
G1 X100.226 Y76.793 E.25182
G1 X100.226 Y77.298 E.02024
G1 X95.279 Y72.351 E.28045
G1 X94.774 Y72.351 E.02024
G1 X100.226 Y77.803 E.30908
G1 X100.226 Y78.308 E.02024
G1 X94.269 Y72.351 E.33771
G1 X93.764 Y72.351 E.02024
G1 X100.226 Y78.813 E.36634
G1 X100.226 Y79.318 E.02024
G1 X93.258 Y72.351 E.395
G1 X92.753 Y72.351 E.02024
G1 X100.226 Y79.823 E.42363
G1 X100.226 Y80.328 E.02024
G1 X92.248 Y72.351 E.45226
G1 X91.743 Y72.351 E.02024
G1 X100.226 Y80.833 E.48088
G1 X100.226 Y81.338 E.02024
G1 X91.238 Y72.351 E.50951
G1 X90.733 Y72.351 E.02024
G1 X100.226 Y81.843 E.53814
G1 X100.226 Y82.348 E.02024
G1 X90.228 Y72.351 E.56677
G1 X89.723 Y72.351 E.02024
G1 X100.226 Y82.853 E.5954
G1 X100.226 Y83.358 E.02024
G1 X89.218 Y72.351 E.62403
G1 X88.713 Y72.351 E.02024
G1 X100.226 Y83.863 E.65266
G1 X100.226 Y84.369 E.02028
G1 X88.208 Y72.351 E.68132
G1 X87.703 Y72.351 E.02024
G1 X100.226 Y84.874 E.70995
G1 X100.226 Y85.379 E.02024
G1 X87.198 Y72.351 E.73858
G1 X86.693 Y72.351 E.02024
G1 X100.226 Y85.884 E.7672
G1 X100.226 Y86.389 E.02024
G1 X86.188 Y72.351 E.79583
G1 X85.683 Y72.351 E.02024
G1 X100.226 Y86.894 E.82446
G1 X100.226 Y87.399 E.02024
G1 X85.178 Y72.351 E.85309
G1 X84.673 Y72.351 E.02024
G1 X100.226 Y87.904 E.88172
G1 X100.226 Y88.409 E.02024
G1 X84.168 Y72.351 E.91035
G1 X83.663 Y72.351 E.02024
G1 X100.226 Y88.914 E.93898
G1 X100.226 Y89.419 E.02024
G1 X83.158 Y72.351 E.96761
G1 X82.653 Y72.351 E.02024
G1 X100.226 Y89.924 E.99624
G1 X100.226 Y90.429 E.02024
G1 X82.148 Y72.351 E1.02487
G1 X81.643 Y72.351 E.02024
G1 X100.226 Y90.934 E1.0535
G1 X100.226 Y91.439 E.02024
G1 X81.138 Y72.351 E1.08213
G1 X80.633 Y72.351 E.02024
G1 X100.226 Y91.944 E1.11075
G1 X100.226 Y92.449 E.02024
G1 X80.128 Y72.351 E1.13938
G1 X79.623 Y72.351 E.02024
G1 X100.226 Y92.954 E1.16801
G1 X100.226 Y93.459 E.02024
G1 X79.118 Y72.351 E1.19664
G1 X78.613 Y72.351 E.02024
G1 X100.226 Y93.964 E1.22527
G1 X100.226 Y94.469 E.02024
G1 X78.108 Y72.351 E1.2539
G1 X77.602 Y72.351 E.02028
G1 X100.226 Y94.974 E1.28256
G1 X100.226 Y95.479 E.02024
G1 X77.097 Y72.351 E1.31119
G1 X76.592 Y72.351 E.02024
G1 X100.226 Y95.984 E1.33982
G1 X100.226 Y96.489 E.02024
G1 X76.087 Y72.351 E1.36845
G1 X75.582 Y72.351 E.02024
G1 X100.226 Y96.994 E1.39707
G1 X100.226 Y97.499 E.02024
G1 X75.077 Y72.351 E1.4257
G1 X74.572 Y72.351 E.02024
G1 X100.226 Y98.004 E1.45433
G1 X100.226 Y98.509 E.02024
G1 X74.067 Y72.351 E1.48296
G1 X73.562 Y72.351 E.02024
G1 X100.226 Y99.014 E1.51159
G1 X100.226 Y99.519 E.02024
G1 X73.057 Y72.351 E1.54022
G1 X72.552 Y72.351 E.02024
G1 X100.226 Y100.025 E1.56888
G1 X100.226 Y100.53 E.02024
G1 X72.047 Y72.351 E1.59751
G1 X71.542 Y72.351 E.02024
G1 X100.226 Y101.035 E1.62614
G1 X100.226 Y101.54 E.02024
G1 X71.037 Y72.351 E1.65477
G1 X70.532 Y72.351 E.02024
G1 X100.226 Y102.045 E1.68339
G1 X100.226 Y102.55 E.02024
G1 X70.027 Y72.351 E1.71202
G1 X69.522 Y72.351 E.02024
G1 X100.226 Y103.055 E1.74065
G1 X100.226 Y103.56 E.02024
G1 X69.017 Y72.351 E1.76928
G1 X68.512 Y72.351 E.02024
G1 X100.226 Y104.065 E1.79791
G1 X100.226 Y104.57 E.02024
G1 X68.007 Y72.351 E1.82654
G1 X67.502 Y72.351 E.02024
G1 X99.726 Y104.575 E1.82682
G1 X99.221 Y104.575 E.02024
G1 X67.002 Y72.356 E1.82654
G1 X67.002 Y72.861 E.02024
G1 X98.716 Y104.575 E1.79791
G1 X98.211 Y104.575 E.02024
G1 X67.002 Y73.366 E1.76928
G1 X67.002 Y73.871 E.02024
G1 X97.706 Y104.575 E1.74065
G1 X97.201 Y104.575 E.02024
G1 X67.002 Y74.376 E1.71202
G1 X67.002 Y74.881 E.02024
G1 X96.696 Y104.575 E1.68339
G1 X96.191 Y104.575 E.02024
G1 X67.002 Y75.386 E1.65477
G1 X67.002 Y75.891 E.02024
G1 X95.686 Y104.575 E1.62614
G1 X95.181 Y104.575 E.02024
G1 X67.002 Y76.396 E1.59751
G1 X67.002 Y76.901 E.02024
G1 X94.676 Y104.575 E1.56888
G1 X94.171 Y104.575 E.02024
G1 X67.002 Y77.406 E1.54025
G1 X67.002 Y77.911 E.02024
G1 X93.666 Y104.575 E1.51162
G1 X93.16 Y104.575 E.02028
G1 X67.002 Y78.416 E1.48296
G1 X67.002 Y78.921 E.02024
G1 X92.655 Y104.575 E1.45433
G1 X92.15 Y104.575 E.02024
G1 X67.002 Y79.426 E1.4257
G1 X67.002 Y79.931 E.02024
G1 X91.645 Y104.575 E1.39707
G1 X91.14 Y104.575 E.02024
G1 X67.002 Y80.436 E1.36845
G1 X67.002 Y80.941 E.02024
G1 X90.635 Y104.575 E1.33982
G1 X90.13 Y104.575 E.02024
G1 X67.002 Y81.446 E1.31119
G1 X67.002 Y81.951 E.02024
G1 X89.625 Y104.575 E1.28256
G1 X89.12 Y104.575 E.02024
G1 X67.002 Y82.456 E1.25393
G1 X67.002 Y82.961 E.02024
G1 X88.615 Y104.575 E1.2253
G1 X88.11 Y104.575 E.02024
G1 X67.002 Y83.467 E1.19664
G1 X67.002 Y83.972 E.02024
G1 X87.605 Y104.575 E1.16801
G1 X87.1 Y104.575 E.02024
G1 X67.002 Y84.477 E1.13938
G1 X67.002 Y84.982 E.02024
G1 X86.595 Y104.575 E1.11075
G1 X86.09 Y104.575 E.02024
G1 X67.002 Y85.487 E1.08213
G1 X67.002 Y85.992 E.02024
G1 X85.585 Y104.575 E1.0535
G1 X85.08 Y104.575 E.02024
G1 X67.002 Y86.497 E1.02487
G1 X67.002 Y87.002 E.02024
G1 X84.575 Y104.575 E.99624
G1 X84.07 Y104.575 E.02024
G1 X67.002 Y87.507 E.96761
G1 X67.002 Y88.012 E.02024
G1 X83.565 Y104.575 E.93898
G1 X83.06 Y104.575 E.02024
G1 X67.002 Y88.517 E.91035
G1 X67.002 Y89.022 E.02024
G1 X82.555 Y104.575 E.88172
G1 X82.05 Y104.575 E.02024
G1 X67.002 Y89.527 E.85309
G1 X67.002 Y90.032 E.02024
G1 X81.545 Y104.575 E.82446
G1 X81.04 Y104.575 E.02024
G1 X67.002 Y90.537 E.79583
G1 X67.002 Y91.042 E.02024
G1 X80.535 Y104.575 E.7672
G1 X80.03 Y104.575 E.02024
G1 X67.002 Y91.547 E.73858
G1 X67.002 Y92.052 E.02024
G1 X79.525 Y104.575 E.70995
G1 X79.02 Y104.575 E.02024
G1 X67.002 Y92.557 E.68132
G1 X67.002 Y93.062 E.02024
G1 X78.515 Y104.575 E.65269
G1 X78.01 Y104.575 E.02024
G1 X67.002 Y93.567 E.62406
G1 X67.002 Y94.072 E.02024
G1 X77.504 Y104.575 E.5954
G1 X76.999 Y104.575 E.02024
G1 X67.002 Y94.577 E.56677
G1 X67.002 Y95.082 E.02024
G1 X76.494 Y104.575 E.53814
G1 X75.989 Y104.575 E.02024
G1 X67.002 Y95.587 E.50951
G1 X67.002 Y96.092 E.02024
G1 X75.484 Y104.575 E.48088
G1 X74.979 Y104.575 E.02024
G1 X67.002 Y96.597 E.45226
G1 X67.002 Y97.102 E.02024
G1 X74.474 Y104.575 E.42363
G1 X73.969 Y104.575 E.02024
G1 X67.002 Y97.607 E.395
G1 X67.002 Y98.112 E.02024
G1 X73.464 Y104.575 E.36637
G1 X72.959 Y104.575 E.02024
G1 X67.002 Y98.617 E.33774
G1 X67.002 Y99.123 E.02028
G1 X72.454 Y104.575 E.30908
G1 X71.949 Y104.575 E.02024
G1 X67.002 Y99.628 E.28045
G1 X67.002 Y100.133 E.02024
G1 X71.444 Y104.575 E.25182
G1 X70.939 Y104.575 E.02024
G1 X67.002 Y100.638 E.22319
G1 X67.002 Y101.143 E.02024
G1 X70.434 Y104.575 E.19456
G1 X69.929 Y104.575 E.02024
G1 X67.002 Y101.648 E.16594
G1 X67.002 Y102.153 E.02024
G1 X69.424 Y104.575 E.13731
G1 X68.919 Y104.575 E.02024
G1 X67.002 Y102.658 E.10868
G1 X67.002 Y103.163 E.02024
G1 X68.414 Y104.575 E.08005
G1 X67.909 Y104.575 E.02024
G1 X67.002 Y103.668 E.05142
G1 X67.002 Y104.173 E.02024
G1 X67.564 Y104.735 E.03186
G1 X66.735 Y104.842 F8400
;TYPE:Perimeter
;WIDTH:0.42
G1 F1800
G1 X66.735 Y72.084 E1.30768
G1 X100.493 Y72.084 E1.3476
G1 X100.493 Y104.842 E1.30768
G1 X66.795 Y104.842 E1.3452
G1 X66.379 Y105.197 F8400
G1 F1800
G1 X66.379 Y71.728 E1.33606
G1 X100.848 Y71.728 E1.37598
G1 X100.848 Y105.197 E1.33606
G1 X66.439 Y105.197 E1.37358
G1 X66.024 Y105.553 F8400
;TYPE:External perimeter
G1 F1800
G1 X66.024 Y71.373 E1.36444
G1 X101.204 Y71.373 E1.40436
G1 X101.204 Y105.553 E1.36444
G1 X66.084 Y105.553 E1.40197
;LAYER_CHANGE
;Z:0.46
;HEIGHT:0.16
G1 E-3.85 F3600
;WIPE_START
G1 F6720
G1 X66.024 Y105.553 E-.03054
G1 X66.024 Y102.371 E-1.61946
;WIPE_END
G1 Z.46 F8400
M140 S45 ; set bed temperature
G1 Z.66
G1 X66.084 Y107.207
G1 Z.46
G1 E5.5 F2400
;TYPE:Skirt/Brim
;WIDTH:0.42
G1 F2700
G1 X65.614 Y107.207 E.01085
G1 X64.715 Y106.824 E.02256
G1 X64.369 Y105.963 E.02142
G1 X64.369 Y70.963 E.80812
G1 X64.753 Y70.064 E.02257
G1 X65.614 Y69.718 E.02142
G1 X101.614 Y69.718 E.8312
G1 X102.513 Y70.102 E.02257
G1 X102.859 Y70.963 E.02142
G1 X102.859 Y105.963 E.80812
G1 X102.475 Y106.862 E.02257
G1 X101.614 Y107.207 E.02142
G1 X66.144 Y107.207 E.81897
G1 X66.144 Y106.852 F8400
G1 F2700
G1 X65.614 Y106.852 E.01224
G1 X64.887 Y106.474 E.01892
G1 X64.725 Y105.963 E.01238
G1 X64.725 Y70.963 E.80812
G1 X65.102 Y70.236 E.01891
G1 X65.614 Y70.074 E.0124
G1 X101.614 Y70.074 E.8312
G1 X102.341 Y70.451 E.01891
G1 X102.503 Y70.963 E.0124
G1 X102.503 Y105.963 E.80812
G1 X102.125 Y106.69 E.01892
G1 X101.614 Y106.852 E.01238
G1 X66.204 Y106.852 E.81758
G1 X66.204 Y106.496 F8400
G1 F2700
G1 X65.614 Y106.496 E.01362
G1 X65.08 Y105.963 E.01742
G1 X65.08 Y70.963 E.80812
G1 X65.614 Y70.429 E.01744
G1 X101.614 Y70.429 E.8312
G1 X102.147 Y70.963 E.01742
G1 X102.147 Y105.963 E.80812
G1 X101.614 Y106.496 E.0174
G1 X66.264 Y106.496 E.8162
G1 X66.264 Y106.141 F8400
G1 F2700
G1 X65.614 Y106.141 E.01501
G1 X65.436 Y105.963 E.00581
G1 X65.436 Y70.963 E.80812
G1 X65.614 Y70.785 E.00581
G1 X101.614 Y70.785 E.8312
G1 X101.792 Y70.963 E.00581
G1 X101.792 Y105.963 E.80812
G1 X101.614 Y106.141 E.00581
G1 X66.324 Y106.141 E.81481
G1 E-3.85 F3600
;WIPE_START
G1 F6720
G1 X66.264 Y106.141 E-.03054
G1 X65.614 Y106.141 E-.3308
G1 X65.436 Y105.963 E-.12811
G1 X65.436 Y103.683 E-1.16055
;WIPE_END
G1 Z.66 F8400
G1 X67.095 Y72.365
G1 Z.46
G1 E5.5 F2400
;TYPE:Solid infill
;WIDTH:0.550848
G1 F1200
G1 X67.049 Y72.319 E.00201
G1 X66.987 Y72.336 E.00199
G1 X66.97 Y72.398 E.00199
G1 X67.016 Y72.444 E.00201
G1 X67.078 Y72.427 E.00199
;WIDTH:0.449999
G1 X66.982 Y73.091 E.0167
G1 X67.742 Y72.331 E.02675
G1 X67.837 Y72.257 E.003
;WIDTH:0.412168
G1 X67.932 Y72.184 E.00271
;WIDTH:0.374336
G1 X67.891 Y72.195 E.00086
G1 X67.871 Y72.123 E.00152
G1 X67.943 Y72.142 E.00152
;WIDTH:0.449999
G1 X68.33 Y72.331 E.01072
G1 X66.982 Y73.679 E.04744
G1 X66.982 Y74.267 E.01463
G1 X68.918 Y72.331 E.06813
G1 X69.505 Y72.331 E.01461
G1 X66.982 Y74.854 E.08879
G1 X66.982 Y75.442 E.01463
G1 X70.093 Y72.331 E.10948
G1 X70.681 Y72.331 E.01463
G1 X66.982 Y76.03 E.13018
G1 X66.982 Y76.618 E.01463
G1 X71.269 Y72.331 E.15087
G1 X71.857 Y72.331 E.01463
G1 X66.982 Y77.206 E.17156
G1 X66.982 Y77.794 E.01463
G1 X72.445 Y72.331 E.19226
G1 X73.032 Y72.331 E.01461
G1 X66.982 Y78.381 E.21292
G1 X66.982 Y78.969 E.01463
G1 X73.62 Y72.331 E.23361
G1 X74.208 Y72.331 E.01463
G1 X66.982 Y79.557 E.2543
G1 X66.982 Y80.145 E.01463
G1 X74.796 Y72.331 E.275
G1 X75.384 Y72.331 E.01463
G1 X66.982 Y80.733 E.29569
G1 X66.982 Y81.321 E.01463
G1 X75.972 Y72.331 E.31638
G1 X76.559 Y72.331 E.01461
G1 X66.982 Y81.908 E.33704
G1 X66.982 Y82.496 E.01463
G1 X77.147 Y72.331 E.35773
G1 X77.735 Y72.331 E.01463
G1 X66.982 Y83.084 E.37843
G1 X66.982 Y83.672 E.01463
G1 X78.323 Y72.331 E.39912
G1 X78.911 Y72.331 E.01463
G1 X66.982 Y84.26 E.41981
G1 X66.982 Y84.848 E.01463
G1 X79.499 Y72.331 E.44051
G1 X80.087 Y72.331 E.01463
G1 X66.982 Y85.435 E.46118
G1 X66.982 Y86.023 E.01463
G1 X80.674 Y72.331 E.48186
G1 X81.262 Y72.331 E.01463
G1 X66.982 Y86.611 E.50255
G1 X66.982 Y87.199 E.01463
G1 X81.85 Y72.331 E.52325
G1 X82.438 Y72.331 E.01463
G1 X66.982 Y87.787 E.54394
G1 X66.982 Y88.375 E.01463
G1 X83.026 Y72.331 E.56463
G1 X83.614 Y72.331 E.01463
G1 X66.982 Y88.962 E.58531
G1 X66.982 Y89.55 E.01463
G1 X84.201 Y72.331 E.60598
G1 X84.789 Y72.331 E.01463
G1 X66.982 Y90.138 E.62668
G1 X66.982 Y90.726 E.01463
G1 X85.377 Y72.331 E.64737
G1 X85.965 Y72.331 E.01463
G1 X66.982 Y91.314 E.66806
G1 X66.982 Y91.902 E.01463
G1 X86.553 Y72.331 E.68876
G1 X87.141 Y72.331 E.01463
G1 X66.982 Y92.489 E.70943
G1 X66.982 Y93.077 E.01463
G1 X87.728 Y72.331 E.73011
G1 X88.316 Y72.331 E.01463
G1 X66.982 Y93.665 E.7508
G1 X66.982 Y94.253 E.01463
G1 X88.904 Y72.331 E.77149
G1 X89.492 Y72.331 E.01463
G1 X66.982 Y94.841 E.79219
G1 X66.982 Y95.429 E.01463
G1 X90.08 Y72.331 E.81288
G1 X90.668 Y72.331 E.01463
G1 X66.982 Y96.017 E.83357
G1 X66.982 Y96.604 E.01461
G1 X91.255 Y72.331 E.85423
G1 X91.843 Y72.331 E.01463
G1 X66.982 Y97.192 E.87493
G1 X66.982 Y97.78 E.01463
G1 X92.431 Y72.331 E.89562
G1 X93.019 Y72.331 E.01463
G1 X66.982 Y98.368 E.91631
G1 X66.982 Y98.956 E.01463
G1 X93.607 Y72.331 E.93701
G1 X94.195 Y72.331 E.01463
G1 X66.982 Y99.544 E.9577
G1 X66.982 Y100.131 E.01461
G1 X94.782 Y72.331 E.97836
G1 X95.37 Y72.331 E.01463
G1 X66.982 Y100.719 E.99905
G1 X66.982 Y101.307 E.01463
G1 X95.958 Y72.331 E1.01974
G1 X96.546 Y72.331 E.01463
G1 X66.982 Y101.895 E1.04044
G1 X66.982 Y102.483 E.01463
G1 X97.134 Y72.331 E1.06113
G1 X97.722 Y72.331 E.01463
G1 X66.982 Y103.071 E1.08182
G1 X66.982 Y103.658 E.01461
G1 X98.309 Y72.331 E1.10248
G1 X98.897 Y72.331 E.01463
G1 X66.982 Y104.246 E1.12318
G1 X66.922 Y104.715 E.01177
;WIDTH:0.374336
G1 X66.881 Y104.726 E.00086
G1 X66.862 Y104.655 E.0015
G1 X66.933 Y104.674 E.0015
;WIDTH:0.412168
G1 X67.077 Y104.634 E.00338
;WIDTH:0.449999
G1 X67.221 Y104.595 E.00371
G1 X99.485 Y72.331 E1.13546
G1 X100.073 Y72.331 E.01463
G1 X67.809 Y104.595 E1.13546
G1 X68.397 Y104.595 E.01463
G1 X100.246 Y72.746 E1.12085
G1 X100.246 Y73.334 E.01463
G1 X68.985 Y104.595 E1.10016
G1 X69.573 Y104.595 E.01463
G1 X100.246 Y73.922 E1.07947
G1 X100.246 Y74.509 E.01461
G1 X70.16 Y104.595 E1.05881
G1 X70.748 Y104.595 E.01463
G1 X100.246 Y75.097 E1.03811
G1 X100.246 Y75.685 E.01463
G1 X71.336 Y104.595 E1.01742
G1 X71.924 Y104.595 E.01463
G1 X100.246 Y76.273 E.99673
G1 X100.246 Y76.861 E.01463
G1 X72.512 Y104.595 E.97604
G1 X73.1 Y104.595 E.01463
G1 X100.246 Y77.449 E.95534
G1 X100.246 Y78.036 E.01461
G1 X73.687 Y104.595 E.93468
G1 X74.275 Y104.595 E.01463
G1 X100.246 Y78.624 E.91399
