; generated by PrusaSlicer 2.9.4 on 2026-01-11 at 15:09:38 UTC

; 

; external perimeters extrusion width = 0.45mm
; perimeters extrusion width = 0.45mm
; infill extrusion width = 0.45mm
; solid infill extrusion width = 0.45mm
; top infill extrusion width = 0.40mm
; support material extrusion width = 0.35mm
; first layer extrusion width = 0.42mm

M190 S60 ; set bed temperature and wait for it to be reached
M104 S190 ; set temperature
;TYPE:Custom
G28 ; home all axes
G1 Z5 F5000 ; lift nozzle
M109 S190 ; set temperature and wait for it to be reached
G21 ; set units to millimeters
G90 ; use absolute coordinates
M83 ; use relative distances for extrusion
; Filament gcode
M107
;LAYER_CHANGE
;Z:0.3
;HEIGHT:0.3
G1 E-5.5 F3600
G1 Z.5 F8400
G1 X87.659 Y88.332
G1 Z.3
G1 E5.5 F2400
;TYPE:Skirt/Brim
;WIDTH:0.42
G1 F1800
G1 X100.659 Y83.332 E.55601
G1 X101.105 Y83.249 E.01811
G1 X111.105 Y83.249 E.39919
G1 X111.552 Y83.332 E.01815
G1 X124.552 Y88.332 E.55601
G1 X125.35 Y89.494 E.05627
G1 X125.35 Y97.494 E.31935
G1 X124.966 Y98.393 E.03902
G1 X124.105 Y98.738 E.03703
G1 X88.105 Y98.738 E1.4371
G1 X87.206 Y98.354 E.03902
G1 X86.861 Y97.494 E.03699
G1 X86.861 Y89.494 E.31935
G1 X87.625 Y88.381 E.05389
G1 X87.786 Y88.664 F8400
G1 F1800
G1 X100.786 Y83.664 E.55601
G1 X101.105 Y83.604 E.01296
G1 X111.105 Y83.604 E.39919
G1 X111.425 Y83.664 E.013
G1 X124.425 Y88.664 E.55601
G1 X124.994 Y89.494 E.04017
G1 X124.994 Y97.494 E.31935
G1 X124.617 Y98.221 E.03269
G1 X124.105 Y98.383 E.02144
G1 X88.105 Y98.383 E1.4371
G1 X87.378 Y98.005 E.03271
G1 X87.216 Y97.494 E.0214
G1 X87.216 Y89.494 E.31935
G1 X87.752 Y88.713 E.03781
G1 X87.914 Y88.996 F8400
G1 F1800
G1 X100.914 Y83.996 E.55601
G1 X111.297 Y83.996 E.41448
G1 X124.297 Y88.996 E.55601
G1 X124.639 Y89.494 E.02412
G1 X124.639 Y97.494 E.31935
G1 X124.105 Y98.027 E.03012
G1 X88.105 Y98.027 E1.4371
G1 X87.572 Y97.494 E.03009
G1 X87.572 Y89.494 E.31935
G1 X87.88 Y89.045 E.02174
G1 X88.042 Y89.328 F8400
G1 F1800
G1 X101.042 Y84.328 E.55601
G1 X111.169 Y84.328 E.40426
G1 X124.169 Y89.328 E.55601
G1 X124.283 Y89.494 E.00804
G1 X124.283 Y97.494 E.31935
G1 X124.105 Y97.671 E.01002
G1 X88.105 Y97.671 E1.4371
G1 X87.928 Y97.494 E.00999
G1 X87.928 Y89.494 E.31935
G1 X88.008 Y89.377 E.00566
G1 E-3.85 F3600
;WIPE_START
G1 F6720
G1 X88.042 Y89.328 E-.03035
G1 X91.012 Y88.185 E-1.61965
;WIPE_END
G1 Z.5 F8400
G1 X122.877 Y91.449
G1 Z.3
G1 E5.5 F2400
;TYPE:Solid infill
;WIDTH:0.42399
G1 F1800
G1 X122.31 Y90.881 E.0324
G1 X121.802 Y90.881 E.02051
G1 X122.717 Y91.797 E.05226
G1 X122.717 Y92.306 E.02055
G1 X121.293 Y90.881 E.08132
G1 X120.784 Y90.881 E.02055
G1 X122.717 Y92.814 E.11035
G1 X122.717 Y93.323 E.02055
G1 X120.276 Y90.881 E.13938
G1 X119.767 Y90.881 E.02055
G1 X122.717 Y93.832 E.16844
G1 X122.717 Y94.34 E.02051
G1 X119.259 Y90.881 E.19744
G1 X118.75 Y90.881 E.02055
G1 X122.717 Y94.849 E.2265
G1 X122.717 Y95.357 E.02051
G1 X118.242 Y90.881 E.2555
G1 X117.733 Y90.881 E.02055
G1 X122.717 Y95.866 E.28455
G1 X122.717 Y96.106 E.00969
G1 X122.449 Y96.106 E.01082
G1 X117.225 Y90.881 E.29826
G1 X116.716 Y90.881 E.02055
G1 X121.94 Y96.106 E.29826
G1 X121.431 Y96.106 E.02055
G1 X116.207 Y90.881 E.29826
G1 X115.699 Y90.881 E.02051
G1 X120.923 Y96.106 E.29826
G1 X120.414 Y96.106 E.02055
G1 X115.19 Y90.881 E.29826
G1 X114.682 Y90.881 E.02051
G1 X119.906 Y96.106 E.29826
G1 X119.397 Y96.106 E.02055
G1 X114.173 Y90.881 E.29826
G1 X113.665 Y90.881 E.02051
G1 X118.889 Y96.106 E.29826
G1 X118.38 Y96.106 E.02055
G1 X113.156 Y90.881 E.29826
G1 X112.647 Y90.881 E.02055
G1 X117.872 Y96.106 E.29828
G1 X117.363 Y96.106 E.02055
G1 X112.139 Y90.881 E.29826
G1 X111.63 Y90.881 E.02055
G1 X116.854 Y96.106 E.29826
G1 X116.346 Y96.106 E.02051
G1 X111.122 Y90.881 E.29826
G1 X110.867 Y90.881 E.01029
G1 X110.573 Y90.842 E.01197
G1 X115.837 Y96.106 E.30051
G1 X115.329 Y96.106 E.02051
G1 X110.073 Y90.85 E.30005
G1 X109.844 Y90.881 E.00933
G1 X109.596 Y90.881 E.01001
G1 X114.82 Y96.106 E.29826
G1 X114.312 Y96.106 E.02051
G1 X109.087 Y90.881 E.29828
G1 X108.579 Y90.881 E.02051
G1 X113.803 Y96.106 E.29826
G1 X113.294 Y96.106 E.02055
G1 X108.07 Y90.881 E.29826
G1 X107.562 Y90.881 E.02051
G1 X112.786 Y96.106 E.29826
G1 X112.277 Y96.106 E.02055
G1 X107.053 Y90.881 E.29826
G1 X106.545 Y90.881 E.02051
G1 X111.769 Y96.106 E.29826
G1 X111.26 Y96.106 E.02055
G1 X106.036 Y90.881 E.29826
G1 X105.528 Y90.881 E.02051
G1 X110.752 Y96.106 E.29826
G1 X110.243 Y96.106 E.02055
G1 X105.019 Y90.881 E.29826
G1 X104.51 Y90.881 E.02055
G1 X109.735 Y96.106 E.29828
G1 X109.226 Y96.106 E.02055
G1 X104.002 Y90.881 E.29826
G1 X103.493 Y90.881 E.02055
G1 X108.717 Y96.106 E.29826
G1 X108.209 Y96.106 E.02051
G1 X102.985 Y90.881 E.29826
G1 X102.476 Y90.881 E.02055
G1 X107.7 Y96.106 E.29826
G1 X107.192 Y96.106 E.02051
G1 X101.843 Y90.757 E.30536
G1 X101.642 Y90.841 E.00879
G1 X101.445 Y90.868 E.00803
G1 X106.683 Y96.106 E.29903
G1 X106.175 Y96.106 E.02051
G1 X100.95 Y90.881 E.29828
G1 X100.442 Y90.881 E.02051
G1 X105.666 Y96.106 E.29826
G1 X105.157 Y96.106 E.02055
G1 X99.933 Y90.881 E.29826
G1 X99.425 Y90.881 E.02051
G1 X104.649 Y96.106 E.29826
G1 X104.14 Y96.106 E.02055
G1 X98.916 Y90.881 E.29826
G1 X98.408 Y90.881 E.02051
G1 X103.632 Y96.106 E.29826
G1 X103.123 Y96.106 E.02055
G1 X97.899 Y90.881 E.29826
G1 X97.391 Y90.881 E.02051
G1 X102.615 Y96.106 E.29826
G1 X102.106 Y96.106 E.02055
G1 X96.882 Y90.881 E.29826
G1 X96.373 Y90.881 E.02055
G1 X101.597 Y96.106 E.29826
G1 X101.089 Y96.106 E.02051
G1 X95.865 Y90.881 E.29826
G1 X95.356 Y90.881 E.02055
G1 X100.58 Y96.106 E.29826
G1 X100.072 Y96.106 E.02051
G1 X94.848 Y90.881 E.29826
G1 X94.339 Y90.881 E.02055
G1 X99.563 Y96.106 E.29826
G1 X99.055 Y96.106 E.02051
G1 X93.831 Y90.881 E.29826
G1 X93.322 Y90.881 E.02055
G1 X98.546 Y96.106 E.29826
G1 X98.038 Y96.106 E.02051
G1 X92.813 Y90.881 E.29828
G1 X92.305 Y90.881 E.02051
G1 X97.529 Y96.106 E.29826
G1 X97.02 Y96.106 E.02055
G1 X91.796 Y90.881 E.29826
G1 X91.288 Y90.881 E.02051
G1 X96.512 Y96.106 E.29826
G1 X96.003 Y96.106 E.02055
G1 X90.779 Y90.881 E.29826
G1 X90.271 Y90.881 E.02051
G1 X95.495 Y96.106 E.29826
G1 X94.986 Y96.106 E.02055
G1 X89.762 Y90.881 E.29826
G1 X89.493 Y90.881 E.01086
G1 X89.493 Y91.121 E.00969
G1 X94.478 Y96.106 E.28458
G1 X93.969 Y96.106 E.02055
G1 X89.493 Y91.63 E.25553
G1 X89.493 Y92.138 E.02051
G1 X93.46 Y96.106 E.2265
G1 X92.952 Y96.106 E.02051
G1 X89.493 Y92.647 E.19747
G1 X89.493 Y93.156 E.02055
G1 X92.443 Y96.106 E.16841
G1 X91.935 Y96.106 E.02051
G1 X89.493 Y93.664 E.13941
G1 X89.493 Y94.173 E.02055
G1 X91.426 Y96.106 E.11035
G1 X90.918 Y96.106 E.02051
G1 X89.493 Y94.681 E.08135
G1 X89.493 Y95.19 E.02055
G1 X90.409 Y96.106 E.05229
G1 X89.901 Y96.106 E.02051
G1 X89.333 Y95.538 E.03243
G1 E-3.85 F3600
;WIPE_START
G1 F6720
G1 X89.901 Y96.106 E-.40881
G1 X90.409 Y96.106 E-.25854
G1 X89.493 Y95.19 E-.65928
G1 X89.493 Y94.681 E-.25904
G1 X89.582 Y94.77 E-.06433
;WIPE_END
G1 Z.5 F8400
G1 X109.971 Y89.819
G1 Z.3
G1 E5.5 F2400
;TYPE:External perimeter
;WIDTH:0.42
G1 F1800
G1 X109.951 Y89.863 E.00193
G1 X109.838 Y89.904 E.0048
G1 X102.373 Y89.904 E.298
G1 X102.26 Y89.863 E.0048
G1 X102.195 Y89.726 E.00605
G1 X102.195 Y86.211 E.14032
G1 X102.345 Y86.034 E.00926
G1 X109.838 Y86.034 E.29912
G1 X109.9 Y86.045 E.00251
G1 X110.015 Y86.211 E.00806
G1 X110.015 Y89.726 E.14032
G1 X109.997 Y89.765 E.00171
G1 X110.355 Y90.44 F8400
;TYPE:Perimeter
G1 F1800
G1 X110.533 Y90.547 E.00829
G1 X110.873 Y90.615 E.01384
G1 X122.984 Y90.615 E.48346
G1 X122.984 Y96.372 E.22982
G1 X89.227 Y96.372 E1.34756
G1 X89.227 Y90.615 E.22982
G1 X101.478 Y90.615 E.48905
G1 X101.855 Y90.44 E.01659
G1 X102.033 Y90.547 E.00829
G1 X102.373 Y90.615 E.01384
G1 X109.978 Y90.615 E.30359
G1 X110.301 Y90.465 E.01422
G1 X110.499 Y90.067 F8400
G1 F1800
G1 X110.533 Y90.136 E.00307
G1 X110.669 Y90.219 E.00636
G1 X110.873 Y90.259 E.0083
G1 X123.34 Y90.259 E.49767
G1 X123.34 Y96.728 E.25824
G1 X88.871 Y96.728 E1.37598
G1 X88.871 Y90.259 E.25824
G1 X101.399 Y90.259 E.50011
G1 X101.678 Y90.136 E.01217
G1 X101.855 Y89.771 E.01619
G1 X102.033 Y90.136 E.01621
G1 X102.169 Y90.219 E.00636
G1 X102.373 Y90.259 E.0083
G1 X109.899 Y90.259 E.30043
G1 X110.178 Y90.136 E.01217
G1 X110.355 Y89.771 E.01619
G1 X110.473 Y90.013 E.01075
G1 E-3.85 F3600
;WIPE_START
G1 F6720
G1 X110.499 Y90.067 E-.0305
G1 X110.533 Y90.136 E-.03915
G1 X110.669 Y90.219 E-.08109
G1 X110.873 Y90.259 E-.1058
G1 X113.611 Y90.259 E-1.39346
;WIPE_END
G1 Z.5 F8400
G1 X110.355 Y86.211
G1 Z.3
G1 E5.5 F2400
;WIDTH:0.432301
G1 F1800
G1 X110.195 Y85.948 E.01271
;WIDTH:0.475842
G1 X110.034 Y85.685 E.01424
G1 X109.838 Y85.662 E.00911
;WIDTH:0.451572
G1 X102.191 Y85.662 E.33236
G1 X102.023 Y85.937 E.01401
;WIDTH:0.420168
G1 X101.855 Y86.211 E.01284
;WIDTH:0.432303
G1 X101.877 Y85.749 E.0191
;WIDTH:0.475842
G1 X101.899 Y85.287 E.02136
G1 X102.373 Y85.275 E.0219
;WIDTH:0.451572
G1 X110.312 Y85.275 E.34506
;WIDTH:0.475842
G1 X110.334 Y85.852 E.02667
;WIDTH:0.432301
G1 X110.352 Y86.151 E.01237
G1 X110.355 Y86.211 F8400
;WIDTH:0.392719
G1 F1800
G1 X110.355 Y89.771 E.13121
G1 E-3.85 F3600
;WIPE_START
G1 F6720
G1 X110.355 Y86.529 E-1.65
;WIPE_END
G1 Z.5 F8400
G1 X101.855 Y89.771
G1 Z.3
G1 E5.5 F2400
;WIDTH:0.392717
G1 F1800
G1 X101.855 Y86.211 E.13121
G1 E-3.85 F3600
;WIPE_START
G1 F6720
G1 X101.855 Y89.453 E-1.65
;WIPE_END
G1 Z.5 F8400
G1 X110.739 Y89.819
G1 Z.3
G1 E5.5 F2400
;TYPE:External perimeter
;WIDTH:0.42
G1 F1800
G1 X110.76 Y89.863 E.00195
G1 X110.873 Y89.904 E.0048
G1 X123.695 Y89.904 E.51185
G1 X123.695 Y97.084 E.28662
G1 X88.515 Y97.084 E1.40436
G1 X88.515 Y89.904 E.28662
G1 X101.338 Y89.904 E.51189
G1 X101.451 Y89.863 E.0048
G1 X101.515 Y89.726 E.00604
G1 X101.515 Y84.904 E.19249
G1 X110.695 Y84.904 E.36646
G1 X110.695 Y89.726 E.19249
G1 X110.714 Y89.765 E.00173
;LAYER_CHANGE
;Z:0.46
;HEIGHT:0.16
G1 E-3.85 F3600
;WIPE_START
G1 F6720
G1 X110.739 Y89.819 E-.03028
G1 X110.76 Y89.863 E-.02481
G1 X110.873 Y89.904 E-.06118
G1 X113.887 Y89.904 E-1.53373
;WIPE_END
G1 Z.46 F8400
M140 S45 ; set bed temperature
G1 Z.66
G1 X112.977 Y83.88
G1 Z.46
G1 E5.5 F2400
;TYPE:Skirt/Brim
;WIDTH:0.42
G1 F2700
G1 X124.552 Y88.332 E.28634
G1 X125.35 Y89.494 E.03255
G1 X125.35 Y97.494 E.18471
G1 X124.966 Y98.393 E.02257
G1 X124.105 Y98.738 E.02142
G1 X88.105 Y98.738 E.8312
G1 X87.206 Y98.354 E.02257
G1 X86.861 Y97.494 E.02139
G1 X86.861 Y89.494 E.18471
G1 X87.659 Y88.332 E.03255
G1 X100.659 Y83.332 E.32159
G1 X101.105 Y83.249 E.01047
G1 X111.105 Y83.249 E.23089
G1 X111.552 Y83.332 E.0105
G1 X112.921 Y83.858 E.03386
G1 X112.794 Y84.19 F8400
G1 F2700
G1 X124.425 Y88.664 E.28773
G1 X124.994 Y89.494 E.02323
G1 X124.994 Y97.494 E.18471
G1 X124.617 Y98.221 E.01891
G1 X124.105 Y98.383 E.0124
G1 X88.105 Y98.383 E.8312
G1 X87.378 Y98.005 E.01892
G1 X87.216 Y97.494 E.01238
G1 X87.216 Y89.494 E.18471
G1 X87.786 Y88.664 E.02325
G1 X100.786 Y83.664 E.32159
G1 X101.105 Y83.604 E.00749
G1 X111.105 Y83.604 E.23089
G1 X111.425 Y83.664 E.00752
G1 X112.738 Y84.169 E.03248
G1 X112.61 Y84.501 F8400
G1 F2700
G1 X124.297 Y88.996 E.28911
G1 X124.639 Y89.494 E.01395
G1 X124.639 Y97.494 E.18471
G1 X124.105 Y98.027 E.01742
G1 X88.105 Y98.027 E.8312
G1 X87.572 Y97.494 E.0174
G1 X87.572 Y89.494 E.18471
G1 X87.914 Y88.996 E.01395
G1 X100.914 Y83.996 E.32159
G1 X111.297 Y83.996 E.23973
G1 X112.554 Y84.479 E.03109
G1 X112.426 Y84.811 F8400
G1 F2700
G1 X124.169 Y89.328 E.2905
G1 X124.283 Y89.494 E.00465
G1 X124.283 Y97.494 E.18471
G1 X124.105 Y97.671 E.0058
G1 X88.105 Y97.671 E.8312
G1 X87.928 Y97.494 E.00578
G1 X87.928 Y89.494 E.18471
G1 X88.042 Y89.328 E.00465
G1 X101.042 Y84.328 E.32159
G1 X111.169 Y84.328 E.23382
G1 X112.37 Y84.79 E.02971
G1 E-3.85 F3600
;WIPE_START
G1 F6720
G1 X112.426 Y84.811 E-.03044
G1 X115.396 Y85.953 E-1.61956
;WIPE_END
G1 Z.66 F8400
G1 X89.586 Y90.895
G1 Z.46
G1 E5.5 F2400
;TYPE:Solid infill
;WIDTH:0.550848
G1 F1200
G1 X89.541 Y90.85 E.00197
G1 X89.478 Y90.866 E.00201
G1 X89.462 Y90.929 E.00201
G1 X89.507 Y90.974 E.00197
G1 X89.57 Y90.958 E.00201
;WIDTH:0.449999
G1 X89.473 Y91.622 E.0167
G1 X90.233 Y90.862 E.02675
G1 X90.821 Y90.862 E.01463
G1 X89.473 Y92.209 E.04742
G1 X89.473 Y92.797 E.01463
G1 X91.409 Y90.862 E.06812
G1 X91.997 Y90.862 E.01463
G1 X89.473 Y93.385 E.08881
G1 X89.473 Y93.973 E.01463
G1 X92.585 Y90.862 E.1095
G1 X93.173 Y90.862 E.01463
G1 X89.473 Y94.561 E.1302
G1 X89.473 Y95.149 E.01463
G1 X93.761 Y90.862 E.15089
G1 X94.348 Y90.862 E.01461
G1 X89.473 Y95.736 E.17155
G1 X89.406 Y96.253 E.01297
;WIDTH:0.374336
G1 X89.365 Y96.264 E.00086
G1 X89.346 Y96.193 E.0015
G1 X89.417 Y96.212 E.0015
;WIDTH:0.412168
G1 X89.545 Y96.169 E.00305
;WIDTH:0.449999
G1 X89.672 Y96.125 E.00334
G1 X94.936 Y90.862 E.18524
G1 X95.524 Y90.862 E.01463
G1 X90.26 Y96.125 E.18524
G1 X90.848 Y96.125 E.01463
G1 X96.112 Y90.862 E.18524
G1 X96.7 Y90.862 E.01463
G1 X91.436 Y96.125 E.18524
G1 X92.024 Y96.125 E.01463
G1 X97.288 Y90.862 E.18524
G1 X97.875 Y90.862 E.01461
G1 X92.611 Y96.125 E.18524
G1 X93.199 Y96.125 E.01463
G1 X98.463 Y90.862 E.18524
G1 X99.051 Y90.862 E.01463
G1 X93.787 Y96.125 E.18524
G1 X94.375 Y96.125 E.01463
G1 X99.639 Y90.862 E.18524
G1 X100.227 Y90.862 E.01463
G1 X94.963 Y96.125 E.18524
G1 X95.551 Y96.125 E.01463
G1 X100.815 Y90.862 E.18524
G1 X101.447 Y90.817 E.01577
G1 X96.139 Y96.125 E.1868
G1 X96.726 Y96.125 E.01461
G1 X102.088 Y90.764 E.18869
G1 X101.987 Y90.652 E.00375
;WIDTH:0.412168
G1 X101.885 Y90.54 E.00343
;WIDTH:0.374336
G1 X101.844 Y90.551 E.00086
G1 X101.825 Y90.48 E.0015
G1 X101.896 Y90.499 E.0015
;WIDTH:0.449999
G1 X102.579 Y90.861 E.01924
G1 X97.314 Y96.125 E.18527
G1 X97.902 Y96.125 E.01463
G1 X103.166 Y90.862 E.18524
G1 X103.754 Y90.862 E.01463
G1 X98.49 Y96.125 E.18524
G1 X99.078 Y96.125 E.01463
G1 X104.342 Y90.862 E.18524
G1 X104.929 Y90.862 E.01461
G1 X99.666 Y96.125 E.18522
G1 X100.253 Y96.125 E.01461
G1 X105.517 Y90.862 E.18524
G1 X106.105 Y90.862 E.01463
G1 X100.841 Y96.125 E.18524
G1 X101.429 Y96.125 E.01463
G1 X106.693 Y90.862 E.18524
G1 X107.281 Y90.862 E.01463
G1 X102.017 Y96.125 E.18524
G1 X102.605 Y96.125 E.01463
G1 X107.869 Y90.862 E.18524
G1 X108.456 Y90.862 E.01461
G1 X103.193 Y96.125 E.18522
G1 X103.78 Y96.125 E.01461
G1 X109.044 Y90.862 E.18524
G1 X109.633 Y90.861 E.01466
G1 X104.368 Y96.125 E.18527
G1 X104.956 Y96.125 E.01463
G1 X110.408 Y90.674 E.19185
G1 X110.394 Y90.592 E.00207
;WIDTH:0.412168
G1 X110.38 Y90.511 E.00186
;WIDTH:0.374336
G1 X110.339 Y90.522 E.00086
G1 X110.32 Y90.451 E.0015
G1 X110.391 Y90.47 E.0015
;WIDTH:0.449999
G1 X110.841 Y90.829 E.01433
G1 X105.544 Y96.125 E.1864
G1 X106.132 Y96.125 E.01463
G1 X111.485 Y90.788 E.18811
;WIDTH:0.412168
G1 X111.573 Y90.714 E.0026
;WIDTH:0.374336
G1 X111.532 Y90.725 E.00086
G1 X111.513 Y90.654 E.0015
G1 X111.584 Y90.673 E.0015
;WIDTH:0.449999
G1 X111.983 Y90.862 E.01099
G1 X106.72 Y96.125 E.18522
G1 X107.307 Y96.125 E.01461
G1 X112.571 Y90.862 E.18524
G1 X113.159 Y90.862 E.01463
G1 X107.895 Y96.125 E.18524
G1 X108.483 Y96.125 E.01463
G1 X113.747 Y90.862 E.18524
G1 X114.335 Y90.862 E.01463
G1 X109.071 Y96.125 E.18524
G1 X109.659 Y96.125 E.01463
G1 X114.923 Y90.862 E.18524
G1 X115.51 Y90.862 E.01461
G1 X110.247 Y96.125 E.18522
G1 X110.834 Y96.125 E.01461
G1 X116.098 Y90.862 E.18524
G1 X116.686 Y90.862 E.01463
G1 X111.422 Y96.125 E.18524
G1 X112.01 Y96.125 E.01463
G1 X117.274 Y90.862 E.18524
G1 X117.862 Y90.862 E.01463
G1 X112.598 Y96.125 E.18524
G1 X113.186 Y96.125 E.01463
G1 X118.45 Y90.862 E.18524
G1 X119.037 Y90.862 E.01461
G1 X113.774 Y96.125 E.18522
G1 X114.361 Y96.125 E.01461
G1 X119.625 Y90.862 E.18524
G1 X120.213 Y90.862 E.01463
G1 X114.949 Y96.125 E.18524
G1 X115.537 Y96.125 E.01463
G1 X120.801 Y90.862 E.18524
G1 X121.389 Y90.862 E.01463
G1 X116.125 Y96.125 E.18524
G1 X116.713 Y96.125 E.01463
G1 X121.977 Y90.862 E.18524
G1 X122.883 Y90.746 F8400
;WIDTH:0.374336
G1 F1200
G1 X122.811 Y90.727 E.00152
G1 X122.831 Y90.798 E.0015
G1 X122.872 Y90.787 E.00086
;WIDTH:0.412168
G1 X122.718 Y90.825 E.00359
;WIDTH:0.449999
G1 X122.564 Y90.862 E.00394
G1 X117.301 Y96.125 E.18522
G1 X117.888 Y96.125 E.01461
G1 X122.737 Y91.277 E.17063
G1 X122.737 Y91.864 E.01461
