; generated by PrusaSlicer 2.9.4 on 2025-12-30 at 23:46:34 UTC

; 

; external perimeters extrusion width = 0.45mm
; perimeters extrusion width = 0.45mm
; infill extrusion width = 0.45mm
; solid infill extrusion width = 0.45mm
; top infill extrusion width = 0.40mm
; first layer extrusion width = 0.42mm

; external perimeters extrusion width = 0.45mm
; perimeters extrusion width = 0.45mm
; infill extrusion width = 0.45mm
; solid infill extrusion width = 0.45mm
; top infill extrusion width = 0.40mm
; first layer extrusion width = 0.42mm

M190 S60 ; set bed temperature and wait for it to be reached
M104 S190 ; set temperature
;TYPE:Custom
G28 ; home all axes
G1 Z5 F5000 ; lift nozzle
M109 S190 ; set temperature and wait for it to be reached
G21 ; set units to millimeters
G90 ; use absolute coordinates
M83 ; use relative distances for extrusion
; Filament gcode
M107
;LAYER_CHANGE
;Z:0.3
;HEIGHT:0.3
G1 E-5.5 F3600
G1 Z.5 F8400
G1 X46.913 Y60.529
G1 Z.3
G1 E5.5 F2400
;TYPE:Skirt/Brim
;WIDTH:0.42
G1 F1800
G1 X47.793 Y60.164 E.03803
G1 X87.959 Y60.166 E1.6034
G1 X139.122 Y62.91 E2.04533
G1 X139.936 Y63.273 E.03558
G1 X144.036 Y67.374 E.23149
G1 X144.401 Y68.254 E.03803
G1 X144.401 Y109.853 E1.6606
G1 X144.036 Y110.733 E.03803
G1 X139.936 Y114.833 E.23146
G1 X139.056 Y115.198 E.03803
G1 X98.89 Y115.196 E1.6034
G1 X47.727 Y112.452 E2.04533
G1 X46.913 Y112.089 E.03558
G1 X42.813 Y107.988 E.23149
G1 X42.448 Y107.108 E.03803
G1 X42.448 Y65.509 E1.6606
G1 X42.813 Y64.629 E.03803
G1 X46.871 Y60.571 E.22909
G1 X47.122 Y60.822 F8400
G1 F1800
G1 X47.165 Y60.78 E.0024
G1 X47.793 Y60.52 E.02713
G1 X87.94 Y60.521 E1.60264
G1 X139.103 Y63.265 E2.04533
G1 X139.684 Y63.525 E.02541
G1 X143.785 Y67.625 E.23149
G1 X144.045 Y68.254 E.02717
G1 X144.045 Y109.853 E1.6606
G1 X143.785 Y110.481 E.02713
G1 X139.684 Y114.582 E.23152
G1 X139.056 Y114.842 E.02713
G1 X98.909 Y114.841 E1.60264
G1 X47.746 Y112.096 E2.04533
G1 X47.165 Y111.837 E.02539
G1 X43.064 Y107.737 E.23149
G1 X42.804 Y107.108 E.02717
G1 X42.804 Y65.509 E1.6606
G1 X43.064 Y64.88 E.02717
G1 X47.08 Y60.865 E.22669
G1 X47.331 Y61.116 F8400
G1 F1800
G1 X47.416 Y61.031 E.0048
G1 X47.793 Y60.875 E.01629
G1 X87.921 Y60.876 E1.60188
G1 X139.084 Y63.621 E2.04533
G1 X139.433 Y63.776 E.01524
G1 X143.533 Y67.876 E.23146
G1 X143.689 Y68.254 E.01632
G1 X143.689 Y109.853 E1.6606
G1 X143.533 Y110.23 E.01629
G1 X139.433 Y114.33 E.23146
G1 X139.056 Y114.487 E.0163
G1 X98.928 Y114.486 E1.60188
G1 X47.765 Y111.741 E2.04533
G1 X47.416 Y111.586 E.01524
G1 X43.316 Y107.485 E.23149
G1 X43.16 Y107.108 E.01629
G1 X43.16 Y65.509 E1.6606
G1 X43.316 Y65.132 E.01629
G1 X47.289 Y61.159 E.22429
G1 X47.54 Y61.41 F8400
G1 F1800
G1 X47.668 Y61.283 E.0072
G1 X47.793 Y61.231 E.0054
G1 X87.902 Y61.231 E1.60112
G1 X139.181 Y64.027 E2.05006
G1 X143.282 Y68.128 E.23152
G1 X143.334 Y68.254 E.00544
G1 X143.334 Y109.853 E1.6606
G1 X143.282 Y109.978 E.0054
G1 X139.181 Y114.079 E.23152
G1 X139.056 Y114.131 E.0054
G1 X98.947 Y114.131 E1.60112
G1 X47.668 Y111.334 E2.05007
G1 X43.567 Y107.234 E.23149
G1 X43.515 Y107.108 E.00544
G1 X43.515 Y65.509 E1.6606
G1 X43.567 Y65.383 E.00544
G1 X47.498 Y61.453 E.22189
G1 E-3.85 F3600
;WIPE_START
G1 F6720
G1 X47.54 Y61.41 E-.03059
G1 X47.668 Y61.283 E-.09177
G1 X47.793 Y61.231 E-.0689
G1 X50.659 Y61.231 E-1.45874
;WIPE_END
G1 Z.5 F8400
G1 X95.277 Y70.597
G1 Z.3
G1 E5.5 F2400
G1 F1800
G1 X95.707 Y68.727 E.0766
G1 X96.683 Y67.05 E.07746
G1 X98.672 Y65.348 E.1045
G1 X99.958 Y64.82 E.05549
G1 X101.347 Y64.574 E.05631
G1 X136.715 Y64.578 E1.41187
G1 X138.055 Y64.821 E.05436
G1 X139.343 Y65.35 E.05558
G1 X141.045 Y66.721 E.08724
G1 X142.204 Y68.485 E.08426
G1 X142.735 Y70.593 E.08678
G1 X142.735 Y107.509 E1.47366
G1 X142.305 Y109.379 E.0766
G1 X141.329 Y111.056 E.07746
G1 X139.34 Y112.758 E.1045
G1 X138.055 Y113.286 E.05546
G1 X136.665 Y113.532 E.05635
G1 X101.3 Y113.532 E1.41175
G1 X99.43 Y113.102 E.0766
G1 X97.753 Y112.127 E.07744
G1 X96.051 Y110.137 E.10453
G1 X95.523 Y108.852 E.05546
G1 X95.277 Y107.462 E.05635
G1 X95.277 Y70.657 E1.46923
G1 X95.633 Y70.657 F8400
G1 F1800
G1 X95.633 Y70.618 E.00156
G1 X96.047 Y68.834 E.07311
G1 X96.974 Y67.256 E.07306
G1 X98.833 Y65.666 E.09765
G1 X100.075 Y65.157 E.05358
G1 X101.363 Y64.93 E.05221
G1 X136.699 Y64.933 E1.41059
G1 X137.972 Y65.167 E.05167
G1 X139.182 Y65.669 E.05229
G1 X140.799 Y66.979 E.08307
G1 X141.889 Y68.653 E.07974
G1 X142.379 Y70.614 E.08069
G1 X142.379 Y107.489 E1.47203
G1 X141.965 Y109.272 E.07307
G1 X141.038 Y110.85 E.07306
G1 X139.179 Y112.44 E.09765
G1 X137.937 Y112.95 E.0536
G1 X136.65 Y113.176 E.05216
G1 X101.32 Y113.176 E1.41035
G1 X99.537 Y112.762 E.07307
G1 X97.959 Y111.835 E.07306
G1 X96.369 Y109.976 E.09765
G1 X95.859 Y108.734 E.0536
G1 X95.633 Y107.447 E.05216
G1 X95.633 Y70.717 E1.46624
G1 X95.988 Y70.717 F8400
G1 F1800
G1 X95.988 Y70.638 E.00315
G1 X96.387 Y68.943 E.06951
G1 X97.265 Y67.463 E.06869
G1 X98.996 Y65.984 E.09089
G1 X100.157 Y65.503 E.05017
G1 X101.378 Y65.285 E.04951
G1 X136.682 Y65.289 E1.40931
G1 X137.888 Y65.513 E.04897
G1 X139.021 Y65.987 E.04903
G1 X140.552 Y67.236 E.07887
G1 X141.574 Y68.821 E.07528
G1 X142.024 Y70.636 E.07465
G1 X142.024 Y107.468 E1.47031
G1 X141.625 Y109.164 E.06955
G1 X140.748 Y110.643 E.06864
G1 X139.017 Y112.122 E.09089
G1 X137.856 Y112.603 E.05017
G1 X136.634 Y112.821 E.04955
G1 X101.341 Y112.821 E1.40887
G1 X99.646 Y112.423 E.0695
G1 X98.166 Y111.545 E.06869
G1 X96.687 Y109.814 E.09089
G1 X96.206 Y108.653 E.05017
G1 X95.988 Y107.431 E.04955
G1 X95.988 Y70.777 E1.4632
G1 X96.344 Y70.777 F8400
G1 F1800
G1 X96.344 Y70.658 E.00475
G1 X96.706 Y69.101 E.06381
G1 X97.555 Y67.67 E.06642
G1 X99.158 Y66.301 E.08415
G1 X100.239 Y65.85 E.04676
G1 X101.395 Y65.641 E.04689
G1 X136.666 Y65.645 E1.40799
G1 X137.803 Y65.859 E.04619
G1 X138.858 Y66.304 E.04571
G1 X140.305 Y67.493 E.07476
G1 X141.236 Y68.936 E.06855
G1 X141.668 Y70.658 E.07087
G1 X141.668 Y107.448 E1.46863
G1 X141.306 Y109.006 E.06385
G1 X140.457 Y110.437 E.06642
G1 X138.854 Y111.805 E.08413
G1 X137.773 Y112.257 E.04677
G1 X136.618 Y112.465 E.04685
G1 X101.361 Y112.465 E1.40744
G1 X99.803 Y112.103 E.06385
G1 X98.372 Y111.254 E.06642
G1 X97.004 Y109.651 E.08413
G1 X96.552 Y108.57 E.04677
G1 X96.344 Y107.415 E.04685
G1 X96.344 Y70.837 E1.46017
G1 X96.7 Y70.837 F8400
G1 F1800
G1 X96.7 Y70.679 E.00631
G1 X97.046 Y69.21 E.06025
G1 X97.845 Y67.878 E.06201
G1 X99.322 Y66.618 E.0775
G1 X100.323 Y66.196 E.04337
G1 X101.411 Y65.997 E.04415
G1 X136.649 Y66 E1.40668
G1 X137.682 Y66.194 E.04196
G1 X138.696 Y66.621 E.04392
G1 X140.056 Y67.749 E.07053
G1 X140.921 Y69.103 E.06414
G1 X141.313 Y70.679 E.06483
G1 X141.313 Y107.427 E1.46696
G1 X140.966 Y108.897 E.06029
G1 X140.167 Y110.229 E.06201
G1 X138.69 Y111.488 E.07747
G1 X137.689 Y111.911 E.04338
G1 X136.602 Y112.11 E.04411
G1 X101.382 Y112.11 E1.40596
G1 X99.912 Y111.763 E.06029
G1 X98.58 Y110.964 E.06201
G1 X97.321 Y109.487 E.07747
G1 X96.899 Y108.486 E.04337
G1 X96.7 Y107.399 E.04411
G1 X96.7 Y70.897 E1.45714
G1 X97.055 Y70.897 F8400
G1 F1800
G1 X97.055 Y70.701 E.00782
G1 X97.385 Y69.32 E.05668
G1 X98.134 Y68.087 E.05759
G1 X99.485 Y66.935 E.07088
G1 X100.443 Y66.531 E.0415
G1 X101.427 Y66.352 E.03993
G1 X136.632 Y66.356 E1.40536
G1 X137.596 Y66.54 E.03918
G1 X138.532 Y66.938 E.0406
G1 X139.806 Y68.003 E.06629
G1 X140.605 Y69.268 E.05973
G1 X140.957 Y70.701 E.0589
G1 X140.957 Y107.406 E1.46524
G1 X140.627 Y108.786 E.05664
G1 X139.878 Y110.019 E.05759
G1 X138.527 Y111.171 E.07088
G1 X137.569 Y111.575 E.0415
G1 X136.586 Y111.754 E.03989
G1 X101.403 Y111.754 E1.40448
G1 X100.023 Y111.424 E.05664
G1 X98.79 Y110.675 E.05759
G1 X97.638 Y109.324 E.07088
G1 X97.234 Y108.366 E.0415
G1 X97.055 Y107.383 E.03989
G1 X97.055 Y70.957 E1.4541
G1 X97.411 Y70.957 F8400
G1 F1800
G1 X97.411 Y70.722 E.00938
G1 X97.724 Y69.432 E.05299
G1 X98.422 Y68.297 E.05319
G1 X99.65 Y67.251 E.06439
G1 X100.527 Y66.877 E.03806
G1 X101.443 Y66.708 E.03718
G1 X136.615 Y66.711 E1.40404
G1 X137.509 Y66.885 E.03636
G1 X138.367 Y67.254 E.03728
G1 X139.556 Y68.257 E.0621
G1 X140.267 Y69.382 E.05313
G1 X140.601 Y70.723 E.05517
G1 X140.601 Y107.384 E1.46348
G1 X140.288 Y108.675 E.05303
G1 X139.59 Y109.809 E.05316
G1 X138.362 Y110.855 E.06439
G1 X137.485 Y111.229 E.03806
G1 X136.569 Y111.398 E.03718
G1 X101.425 Y111.398 E1.40293
G1 X100.135 Y111.085 E.05299
G1 X99 Y110.387 E.05319
G1 X97.954 Y109.159 E.06439
G1 X97.58 Y108.282 E.03806
G1 X97.411 Y107.366 E.03718
G1 X97.411 Y71.017 E1.45103
G1 X97.766 Y71.017 F8400
G1 F1800
G1 X97.766 Y70.744 E.0109
G1 X98.062 Y69.545 E.0493
G1 X98.709 Y68.509 E.04876
G1 X99.816 Y67.567 E.05802
G1 X100.613 Y67.223 E.03465
G1 X101.46 Y67.064 E.0344
G1 X136.597 Y67.067 E1.40265
G1 X137.421 Y67.23 E.03353
G1 X138.2 Y67.569 E.03391
G1 X139.304 Y68.509 E.05788
G1 X139.95 Y69.545 E.04874
G1 X140.246 Y70.744 E.0493
G1 X140.246 Y107.362 E1.46177
G1 X139.95 Y108.561 E.0493
G1 X139.304 Y109.597 E.04874
G1 X138.197 Y110.539 E.05802
G1 X137.399 Y110.884 E.03471
G1 X136.552 Y111.043 E.0344
G1 X101.447 Y111.043 E1.40137
G1 X100.248 Y110.747 E.0493
G1 X99.212 Y110.101 E.04874
G1 X98.27 Y108.994 E.05802
G1 X97.926 Y108.196 E.03469
G1 X97.766 Y107.35 E.03437
G1 X97.766 Y71.077 E1.44799
G1 X98.122 Y71.077 F8400
G1 F1800
G1 X98.122 Y70.765 E.01245
G1 X98.38 Y69.707 E.04347
G1 X98.962 Y68.76 E.04437
G1 X99.983 Y67.882 E.05376
G1 X100.7 Y67.568 E.03125
G1 X101.477 Y67.419 E.03158
G1 X136.579 Y67.423 E1.40125
G1 X137.331 Y67.574 E.03062
G1 X138.032 Y67.883 E.03058
G1 X139.05 Y68.76 E.05364
G1 X139.632 Y69.707 E.04437
G1 X139.89 Y70.765 E.04347
G1 X139.89 Y107.341 E1.46009
G1 X139.632 Y108.399 E.04347
G1 X139.05 Y109.346 E.04437
G1 X138.029 Y110.225 E.05378
G1 X137.312 Y110.538 E.03123
G1 X136.535 Y110.687 E.03158
G1 X101.468 Y110.687 E1.39985
G1 X100.41 Y110.429 E.04347
G1 X99.463 Y109.847 E.04437
G1 X98.585 Y108.826 E.05376
G1 X98.271 Y108.109 E.03125
G1 X98.122 Y107.332 E.03158
G1 X98.122 Y71.137 E1.44488
G1 X98.478 Y71.137 F8400
G1 F1800
G1 X98.478 Y70.786 E.01401
G1 X98.699 Y69.867 E.03773
G1 X99.217 Y69.009 E.04001
G1 X100.151 Y68.197 E.0494
G1 X100.824 Y67.902 E.02933
G1 X101.494 Y67.775 E.02722
G1 X136.56 Y67.778 E1.39981
G1 X137.239 Y67.918 E.02768
G1 X137.862 Y68.197 E.02725
G1 X138.795 Y69.009 E.04937
G1 X139.313 Y69.867 E.04001
G1 X139.534 Y70.786 E.03773
G1 X139.534 Y107.321 E1.45845
G1 X139.313 Y108.24 E.03773
G1 X138.795 Y109.097 E.03997
G1 X137.861 Y109.91 E.04943
G1 X137.188 Y110.204 E.02932
G1 X136.519 Y110.332 E.02719
G1 X101.489 Y110.332 E1.39837
G1 X100.569 Y110.11 E.03778
G1 X99.712 Y109.592 E.03997
G1 X98.899 Y108.658 E.04943
G1 X98.605 Y107.985 E.02932
G1 X98.478 Y107.316 E.02718
G1 X98.478 Y71.197 E1.44185
G1 X98.833 Y71.197 F8400
G1 F1800
G1 X98.833 Y70.806 E.01561
G1 X99.019 Y70.024 E.03209
G1 X99.474 Y69.257 E.0356
G1 X100.321 Y68.51 E.04508
G1 X100.913 Y68.247 E.02586
G1 X101.511 Y68.13 E.02432
G1 X136.542 Y68.134 E1.39841
G1 X137.112 Y68.251 E.02323
G1 X137.691 Y68.51 E.02532
G1 X138.538 Y69.257 E.04508
G1 X138.993 Y70.024 E.0356
G1 X139.179 Y70.806 E.03209
G1 X139.179 Y107.3 E1.45682
G1 X138.993 Y108.082 E.03209
G1 X138.538 Y108.85 E.03563
G1 X137.691 Y109.596 E.04506
G1 X137.099 Y109.86 E.02588
G1 X136.501 Y109.976 E.02432
G1 X101.509 Y109.976 E1.39686
G1 X100.727 Y109.791 E.03208
G1 X99.96 Y109.335 E.03562
G1 X99.213 Y108.488 E.04508
G1 X98.95 Y107.896 E.02586
G1 X98.833 Y107.298 E.02432
G1 X98.833 Y71.257 E1.43873
G1 X99.189 Y71.257 F8400
G1 F1800
G1 X99.189 Y70.826 E.01721
G1 X99.34 Y70.179 E.02652
G1 X99.733 Y69.502 E.03125
G1 X100.493 Y68.822 E.04071
G1 X101.004 Y68.591 E.02239
G1 X101.529 Y68.486 E.02137
G1 X136.523 Y68.489 E1.39694
G1 X137.018 Y68.595 E.02021
G1 X137.519 Y68.822 E.02196
G1 X138.279 Y69.502 E.04071
G1 X138.672 Y70.179 E.03125
G1 X138.823 Y70.826 E.02652
G1 X138.823 Y107.28 E1.45522
G1 X138.672 Y107.928 E.02656
G1 X138.279 Y108.604 E.03121
G1 X137.519 Y109.284 E.04071
G1 X137.008 Y109.515 E.02239
G1 X136.483 Y109.62 E.02137
G1 X101.529 Y109.62 E1.39534
G1 X100.881 Y109.469 E.02656
G1 X100.205 Y109.076 E.03121
G1 X99.525 Y108.316 E.04071
G1 X99.294 Y107.805 E.02239
G1 X99.189 Y107.28 E.02137
G1 X99.189 Y71.317 E1.43562
G1 X99.545 Y71.317 F8400
G1 F1800
G1 X99.545 Y70.846 E.0188
G1 X99.662 Y70.33 E.02112
G1 X99.994 Y69.745 E.02685
G1 X100.668 Y69.133 E.03634
G1 X101.097 Y68.935 E.01886
G1 X101.548 Y68.842 E.01838
G1 X136.503 Y68.845 E1.39538
G1 X137.344 Y69.133 E.03549
G1 X138.018 Y69.745 E.03634
G1 X138.35 Y70.33 E.02685
G1 X138.468 Y70.846 E.02113
G1 X138.468 Y107.261 E1.45366
G1 X138.35 Y107.776 E.02109
G1 X138.018 Y108.361 E.02685
G1 X137.344 Y108.974 E.03637
G1 X136.915 Y109.171 E.01884
G1 X136.464 Y109.265 E.01839
G1 X101.549 Y109.265 E1.39378
G1 X101.033 Y109.147 E.02113
G1 X100.448 Y108.815 E.02685
G1 X99.836 Y108.141 E.03634
G1 X99.638 Y107.712 E.01886
G1 X99.545 Y107.261 E.01838
G1 X99.545 Y71.377 E1.43247
G1 X99.9 Y71.377 F8400
G1 F1800
G1 X99.9 Y70.865 E.02044
G1 X99.987 Y70.478 E.01583
G1 X100.258 Y69.985 E.02246
G1 X100.846 Y69.442 E.03195
G1 X101.567 Y69.197 E.0304
G1 X136.482 Y69.201 E1.39378
G1 X137.166 Y69.442 E.02895
G1 X137.754 Y69.985 E.03195
G1 X138.026 Y70.478 E.02248
G1 X138.112 Y70.865 E.01583
G1 X138.112 Y107.241 E1.45211
G1 X138.026 Y107.628 E.01583
G1 X137.754 Y108.121 E.02248
G1 X137.166 Y108.664 E.03195
G1 X136.445 Y108.909 E.0304
G1 X101.568 Y108.909 E1.39227
G1 X101.181 Y108.823 E.01583
G1 X100.688 Y108.552 E.02246
G1 X100.145 Y107.963 E.03198
G1 X99.9 Y107.242 E.0304
G1 X99.9 Y71.437 E1.42931
G1 X100.256 Y71.437 F8400
G1 F1800
G1 X100.256 Y70.883 E.02212
G1 X100.524 Y70.222 E.02847
G1 X101.024 Y69.751 E.02742
G1 X101.586 Y69.553 E.02379
G1 X136.462 Y69.556 E1.39223
G1 X136.988 Y69.751 E.02239
G1 X137.488 Y70.222 E.02742
G1 X137.756 Y70.883 E.02847
G1 X137.756 Y107.223 E1.45067
G1 X137.488 Y107.884 E.02847
G1 X136.988 Y108.355 E.02742
G1 X136.426 Y108.553 E.02379
G1 X101.586 Y108.553 E1.39079
G1 X100.925 Y108.285 E.02847
G1 X100.454 Y107.785 E.02742
G1 X100.256 Y107.223 E.02379
G1 X100.256 Y71.497 E1.42616
G1 X100.611 Y71.497 F8400
G1 F1800
G1 X100.611 Y70.901 E.02379
G1 X100.795 Y70.455 E.01926
G1 X101.203 Y70.06 E.02267
G1 X101.604 Y69.909 E.0171
G1 X136.441 Y69.912 E1.39067
G1 X136.809 Y70.06 E.01583
G1 X137.217 Y70.455 E.02267
G1 X137.401 Y70.901 E.01926
G1 X137.401 Y107.205 E1.44923
G1 X137.217 Y107.651 E.01926
G1 X136.809 Y108.047 E.0227
G1 X136.408 Y108.198 E.0171
G1 X101.604 Y108.198 E1.38935
G1 X101.158 Y108.014 E.01926
G1 X100.763 Y107.606 E.02267
G1 X100.611 Y107.205 E.01712
G1 X100.611 Y71.557 E1.42304
G1 X100.967 Y71.557 F8400
G1 F1800
G1 X100.967 Y70.918 E.02551
G1 X101.07 Y70.682 E.01028
G1 X101.384 Y70.367 E.01775
G1 X101.62 Y70.264 E.01028
G1 X136.422 Y70.27 E1.38927
G1 X136.628 Y70.367 E.00909
G1 X136.942 Y70.682 E.01775
G1 X137.045 Y70.918 E.01028
G1 X137.045 Y107.189 E1.44791
G1 X136.942 Y107.425 E.01028
G1 X136.628 Y107.739 E.01773
G1 X136.392 Y107.842 E.01028
G1 X101.62 Y107.842 E1.38808
G1 X101.384 Y107.739 E.01028
G1 X101.07 Y107.425 E.01773
G1 X100.967 Y107.189 E.01028
G1 X100.967 Y71.617 E1.42001
G1 X101.349 Y71.617 F8400
G1 F1800
G1 X101.35 Y70.905 E.02842
G1 X101.673 Y70.62 E.0172
G1 X136.339 Y70.62 E1.38384
G1 X136.689 Y70.97 E.01976
G1 X136.662 Y107.201 E1.44632
G1 X136.339 Y107.487 E.01722
G1 X101.608 Y107.46 E1.38644
G1 X101.323 Y107.136 E.01723
G1 X101.349 Y71.677 E1.4155
G1 X101.678 Y71.677 F8400
G1 F1800
G1 X101.678 Y71.08 E.02383
G1 X101.782 Y70.975 E.0059
G1 X136.23 Y70.975 E1.37514
G1 X136.334 Y71.08 E.0059
G1 X136.334 Y107.027 E1.43498
G1 X136.23 Y107.131 E.00587
G1 X101.782 Y107.131 E1.37514
G1 X101.678 Y107.027 E.00587
G1 X101.678 Y71.737 E1.40875
G1 E-3.85 F3600
;WIPE_START
G1 F6720
G1 X101.678 Y71.677 E-.03054
G1 X101.678 Y71.08 E-.30383
G1 X101.782 Y70.975 E-.07521
G1 X104.219 Y70.975 E-1.24042
;WIPE_END
G1 Z.5 F8400
G1 X91.572 Y71.737
G1 Z.3
G1 E5.5 F2400
G1 F1800
G1 X91.572 Y104.765 E1.31846
G1 X91.142 Y106.635 E.0766
G1 X90.166 Y108.312 E.07746
G1 X88.177 Y110.014 E.1045
G1 X86.892 Y110.542 E.05546
G1 X85.502 Y110.788 E.05635
G1 X50.137 Y110.788 E1.41175
