; generated by PrusaSlicer 2.9.4 on 2026-01-11 at 03:56:49 UTC

; 

; external perimeters extrusion width = 0.45mm
; perimeters extrusion width = 0.45mm
; infill extrusion width = 0.45mm
; solid infill extrusion width = 0.45mm
; top infill extrusion width = 0.40mm
; support material extrusion width = 0.35mm
; first layer extrusion width = 0.42mm

; external perimeters extrusion width = 0.45mm
; perimeters extrusion width = 0.45mm
; infill extrusion width = 0.45mm
; solid infill extrusion width = 0.45mm
; top infill extrusion width = 0.40mm
; support material extrusion width = 0.35mm
; first layer extrusion width = 0.42mm

M190 S60 ; set bed temperature and wait for it to be reached
M104 S190 ; set temperature
;TYPE:Custom
G28 ; home all axes
G1 Z5 F5000 ; lift nozzle
M109 S190 ; set temperature and wait for it to be reached
G21 ; set units to millimeters
G90 ; use absolute coordinates
M83 ; use relative distances for extrusion
; Filament gcode
M107
;LAYER_CHANGE
;Z:0.3
;HEIGHT:0.3
G1 E-5.5 F3600
G1 Z.5 F8400
G1 X90.965 Y66.38
G1 Z.3
G1 E5.5 F2400
;TYPE:Skirt/Brim
;WIDTH:0.42
G1 F1800
G1 X91.826 Y66.034 E.03704
G1 X127.826 Y66.034 E1.4371
G1 X128.725 Y66.418 E.03902
G1 X129.07 Y67.279 E.03703
G1 X129.07 Y92.289 E.99838
G1 X128.687 Y93.188 E.03901
G1 X127.826 Y93.533 E.03703
G1 X91.826 Y93.533 E1.4371
G1 X90.927 Y93.149 E.03902
G1 X90.581 Y92.289 E.037
G1 X90.581 Y67.279 E.99838
G1 X90.942 Y66.435 E.03664
G1 X91.283 Y66.612 F8400
G1 F1800
G1 X91.314 Y66.552 E.0027
G1 X91.826 Y66.39 E.02144
G1 X127.826 Y66.39 E1.4371
G1 X128.553 Y66.767 E.03269
G1 X128.715 Y67.279 E.02144
G1 X128.715 Y92.289 E.99838
G1 X128.337 Y93.016 E.03271
G1 X127.826 Y93.178 E.0214
G1 X91.826 Y93.178 E1.4371
G1 X91.099 Y92.8 E.03271
G1 X90.937 Y92.289 E.0214
G1 X90.937 Y67.279 E.99838
G1 X91.255 Y66.666 E.02757
G1 X91.581 Y66.991 F8400
G1 F1800
G1 X91.826 Y66.746 E.01383
G1 X127.826 Y66.746 E1.4371
G1 X128.359 Y67.279 E.03009
G1 X128.359 Y92.289 E.99838
G1 X127.826 Y92.822 E.03009
G1 X91.826 Y92.822 E1.4371
G1 X91.292 Y92.289 E.03012
G1 X91.292 Y67.279 E.99838
G1 X91.538 Y67.033 E.01389
G1 X91.716 Y67.211 F8400
G1 F1800
G1 X91.826 Y67.101 E.00621
G1 X127.826 Y67.101 E1.4371
G1 X128.004 Y67.279 E.01005
G1 X128.004 Y92.289 E.99838
G1 X127.826 Y92.466 E.01002
G1 X91.826 Y92.466 E1.4371
G1 X91.648 Y92.289 E.01002
G1 X91.648 Y67.279 E.99838
G1 X91.673 Y67.254 E.00141
G1 E-3.85 F3600
;WIPE_START
G1 F6720
G1 X91.716 Y67.211 E-.03095
G1 X91.826 Y67.101 E-.07917
G1 X94.852 Y67.101 E-1.53988
;WIPE_END
G1 Z.5 F8400
G1 X126.598 Y87.244
G1 Z.3
G1 E5.5 F2400
;TYPE:Solid infill
;WIDTH:0.424151
G1 F1800
G1 X126.03 Y86.676 E.03244
G1 X125.521 Y86.676 E.02056
G1 X126.438 Y87.593 E.05237
G1 X126.438 Y88.102 E.02056
G1 X125.013 Y86.676 E.08142
G1 X124.504 Y86.676 E.02056
G1 X126.438 Y88.61 E.11046
G1 X126.438 Y89.119 E.02056
G1 X123.995 Y86.676 E.13953
G1 X123.486 Y86.676 E.02056
G1 X126.438 Y89.628 E.1686
G1 X126.438 Y90.137 E.02056
G1 X122.977 Y86.676 E.19767
G1 X122.469 Y86.676 E.02052
G1 X126.438 Y90.646 E.22671
G1 X126.438 Y90.901 E.0103
G1 X126.184 Y90.901 E.01026
G1 X121.96 Y86.676 E.24128
G1 X121.451 Y86.676 E.02056
G1 X125.675 Y90.901 E.24128
G1 X125.166 Y90.901 E.02056
G1 X120.942 Y86.676 E.24128
G1 X120.434 Y86.676 E.02052
G1 X124.658 Y90.901 E.24128
G1 X124.149 Y90.901 E.02056
G1 X119.925 Y86.676 E.24128
G1 X119.416 Y86.676 E.02056
G1 X123.64 Y90.901 E.24128
G1 X123.131 Y90.901 E.02056
G1 X118.907 Y86.676 E.24128
G1 X118.398 Y86.676 E.02056
G1 X122.622 Y90.901 E.24128
G1 X122.114 Y90.901 E.02052
G1 X117.89 Y86.676 E.24128
G1 X117.381 Y86.676 E.02056
G1 X121.605 Y90.901 E.24128
G1 X121.096 Y90.901 E.02056
G1 X116.872 Y86.676 E.24128
G1 X116.363 Y86.676 E.02056
G1 X120.587 Y90.901 E.24128
G1 X120.079 Y90.901 E.02052
G1 X115.854 Y86.676 E.2413
G1 X115.346 Y86.676 E.02052
G1 X119.57 Y90.901 E.24128
G1 X119.061 Y90.901 E.02056
G1 X114.837 Y86.676 E.24128
G1 X114.412 Y86.662 E.01717
G1 X114.283 Y86.632 E.00535
G1 X118.552 Y90.901 E.24382
G1 X118.043 Y90.901 E.02056
G1 X113.793 Y86.65 E.24276
G1 X113.562 Y86.676 E.00939
G1 X113.31 Y86.676 E.01018
G1 X117.535 Y90.901 E.2413
G1 X117.026 Y90.901 E.02056
G1 X112.802 Y86.676 E.24128
G1 X112.293 Y86.676 E.02056
G1 X116.517 Y90.901 E.24128
G1 X116.008 Y90.901 E.02056
G1 X111.784 Y86.676 E.24128
G1 X111.275 Y86.676 E.02056
G1 X115.499 Y90.901 E.24128
G1 X114.991 Y90.901 E.02052
G1 X110.766 Y86.676 E.2413
G1 X110.258 Y86.676 E.02052
G1 X114.482 Y90.901 E.24128
G1 X113.973 Y90.901 E.02056
G1 X109.749 Y86.676 E.24128
G1 X109.24 Y86.676 E.02056
G1 X113.464 Y90.901 E.24128
G1 X112.955 Y90.901 E.02056
G1 X108.731 Y86.676 E.24128
G1 X108.223 Y86.676 E.02052
G1 X112.447 Y90.901 E.24128
G1 X111.938 Y90.901 E.02056
G1 X107.714 Y86.676 E.24128
G1 X107.205 Y86.676 E.02056
G1 X111.429 Y90.901 E.24128
G1 X110.92 Y90.901 E.02056
G1 X106.696 Y86.676 E.24128
G1 X106.187 Y86.676 E.02056
G1 X110.411 Y90.901 E.24128
G1 X109.903 Y90.901 E.02052
G1 X105.556 Y86.554 E.24827
G1 X105.412 Y86.622 E.00643
G1 X105.162 Y86.669 E.01027
G1 X109.394 Y90.901 E.2417
G1 X108.885 Y90.901 E.02056
G1 X104.661 Y86.676 E.24128
G1 X104.152 Y86.676 E.02056
G1 X108.376 Y90.901 E.24128
G1 X107.868 Y90.901 E.02052
G1 X103.643 Y86.676 E.2413
G1 X103.135 Y86.676 E.02052
G1 X107.359 Y90.901 E.24128
G1 X106.85 Y90.901 E.02056
G1 X102.626 Y86.676 E.24128
G1 X102.117 Y86.676 E.02056
G1 X106.341 Y90.901 E.24128
G1 X105.832 Y90.901 E.02056
G1 X101.608 Y86.676 E.24128
G1 X101.099 Y86.676 E.02056
G1 X105.324 Y90.901 E.2413
G1 X104.815 Y90.901 E.02056
G1 X100.591 Y86.676 E.24128
G1 X100.082 Y86.676 E.02056
G1 X104.306 Y90.901 E.24128
G1 X103.797 Y90.901 E.02056
G1 X99.573 Y86.676 E.24128
G1 X99.064 Y86.676 E.02056
G1 X103.288 Y90.901 E.24128
G1 X102.78 Y90.901 E.02052
G1 X98.555 Y86.676 E.2413
G1 X98.047 Y86.676 E.02052
G1 X102.271 Y90.901 E.24128
G1 X101.762 Y90.901 E.02056
G1 X97.538 Y86.676 E.24128
G1 X97.029 Y86.676 E.02056
G1 X101.253 Y90.901 E.24128
G1 X100.744 Y90.901 E.02056
G1 X96.52 Y86.676 E.24128
G1 X96.012 Y86.676 E.02052
G1 X100.236 Y90.901 E.24128
G1 X99.727 Y90.901 E.02056
G1 X95.503 Y86.676 E.24128
G1 X94.994 Y86.676 E.02056
G1 X99.218 Y90.901 E.24128
G1 X98.709 Y90.901 E.02056
G1 X94.485 Y86.676 E.24128
G1 X93.976 Y86.676 E.02056
G1 X98.2 Y90.901 E.24128
G1 X97.692 Y90.901 E.02052
G1 X93.468 Y86.676 E.24128
G1 X93.214 Y86.676 E.01026
G1 X93.214 Y86.931 E.0103
G1 X97.183 Y90.901 E.22671
G1 X96.674 Y90.901 E.02056
G1 X93.214 Y87.44 E.19764
G1 X93.214 Y87.949 E.02056
G1 X96.165 Y90.901 E.16857
G1 X95.657 Y90.901 E.02052
G1 X93.214 Y88.458 E.13953
G1 X93.214 Y88.967 E.02056
G1 X95.148 Y90.901 E.11046
G1 X94.639 Y90.901 E.02056
G1 X93.214 Y89.475 E.08142
G1 X93.214 Y89.984 E.02056
G1 X94.13 Y90.901 E.05234
G1 X93.621 Y90.901 E.02056
G1 X93.054 Y90.333 E.03241
G1 E-3.85 F3600
;WIPE_START
G1 F6720
G1 X93.621 Y90.901 E-.40845
G1 X94.13 Y90.901 E-.25904
G1 X93.214 Y89.984 E-.65964
G1 X93.214 Y89.475 E-.25904
G1 X93.303 Y89.564 E-.06383
;WIPE_END
G1 Z.5 F8400
G1 X113.684 Y85.616
G1 Z.3
G1 E5.5 F2400
;TYPE:External perimeter
;WIDTH:0.42
G1 F1800
G1 X113.654 Y85.671 E.0025
G1 X113.558 Y85.699 E.00399
G1 X106.094 Y85.699 E.29796
G1 X105.998 Y85.671 E.00399
G1 X105.916 Y85.521 E.00682
G1 X105.916 Y82.056 E.13832
G1 X106.044 Y81.879 E.00872
G1 X113.614 Y81.888 E.30219
G1 X113.736 Y82.056 E.00829
G1 X113.736 Y85.521 E.13832
G1 X113.713 Y85.563 E.00191
G1 X114.076 Y86.205 F8400
;TYPE:Perimeter
G1 F1800
G1 X114.116 Y86.27 E.00305
G1 X114.324 Y86.368 E.00918
G1 X114.594 Y86.41 E.01091
G1 X126.705 Y86.41 E.48346
G1 X126.705 Y91.167 E.1899
G1 X92.947 Y91.167 E1.3476
G1 X92.947 Y86.41 E.1899
G1 X105.169 Y86.41 E.48789
G1 X105.536 Y86.27 E.01568
G1 X105.576 Y86.205 E.00305
G1 X105.616 Y86.27 E.00305
G1 X105.824 Y86.368 E.00918
G1 X106.094 Y86.41 E.01091
G1 X113.669 Y86.41 E.30239
G1 X114.036 Y86.27 E.01568
G1 X114.045 Y86.256 E.00066
G1 X114.241 Y85.855 F8400
G1 F1800
G1 X114.307 Y85.97 E.00529
G1 X114.432 Y86.029 E.00552
G1 X114.594 Y86.054 E.00654
G1 X127.06 Y86.054 E.49763
G1 X127.06 Y91.523 E.21832
G1 X92.591 Y91.523 E1.37598
G1 X92.591 Y86.054 E.21832
G1 X105.124 Y86.054 E.50031
G1 X105.345 Y85.97 E.00944
G1 X105.576 Y85.566 E.01858
G1 X105.807 Y85.97 E.01858
G1 X105.932 Y86.029 E.00552
G1 X106.094 Y86.054 E.00654
G1 X113.624 Y86.054 E.30059
G1 X113.845 Y85.97 E.00944
G1 X114.076 Y85.566 E.01858
G1 X114.211 Y85.803 E.01089
G1 E-3.85 F3600
;WIPE_START
G1 F6720
G1 X114.241 Y85.855 E-.03055
G1 X114.307 Y85.97 E-.06748
G1 X114.432 Y86.029 E-.07035
G1 X114.594 Y86.054 E-.08342
G1 X117.341 Y86.054 E-1.3982
;WIPE_END
G1 Z.5 F8400
G1 X114.076 Y82.056
G1 Z.3
G1 E5.5 F2400
;WIDTH:0.424696
G1 F1800
G1 X113.963 Y81.875 E.00863
;WIDTH:0.460631
G1 X113.851 Y81.695 E.00943
;WIDTH:0.496567
G1 X113.738 Y81.514 E.01035
G1 X113.558 Y81.495 E.00878
;WIDTH:0.476572
G1 X105.926 Y81.495 E.35313
G1 X105.751 Y81.775 E.01528
;WIDTH:0.432668
G1 X105.576 Y82.056 E.01369
;WIDTH:0.424699
G1 X105.594 Y81.735 E.013
;WIDTH:0.460633
G1 X105.612 Y81.414 E.0143
;WIDTH:0.496567
G1 X105.63 Y81.092 E.01565
G1 X106.094 Y81.082 E.02252
;WIDTH:0.476572
G1 X114.022 Y81.082 E.36683
;WIDTH:0.496567
G1 X114.04 Y81.558 E.02311
;WIDTH:0.460631
G1 X114.058 Y81.807 E.0111
;WIDTH:0.424696
G1 X114.072 Y81.996 E.00767
G1 X114.076 Y82.056 F8400
;WIDTH:0.392719
G1 F1800
G1 X114.076 Y85.566 E.12937
G1 E-3.85 F3600
;WIPE_START
G1 F6720
G1 X114.076 Y82.324 E-1.65
;WIPE_END
G1 Z.5 F8400
G1 X105.576 Y85.566
G1 Z.3
G1 E5.5 F2400
;WIDTH:0.392717
G1 F1800
G1 X105.576 Y82.056 E.12937
G1 E-3.85 F3600
;WIPE_START
G1 F6720
G1 X105.576 Y85.298 E-1.65
;WIPE_END
G1 Z.5 F8400
G1 X114.468 Y85.616
G1 Z.3
G1 E5.5 F2400
;TYPE:External perimeter
;WIDTH:0.42
G1 F1800
G1 X114.498 Y85.671 E.0025
G1 X114.594 Y85.699 E.00399
G1 X127.416 Y85.699 E.51185
G1 X127.416 Y91.879 E.2467
G1 X92.236 Y91.879 E1.40436
G1 X92.236 Y85.699 E.2467
G1 X105.058 Y85.699 E.51185
G1 X105.154 Y85.671 E.00399
G1 X105.236 Y85.521 E.00682
G1 X105.236 Y80.699 E.19249
G1 X114.416 Y80.699 E.36646
G1 X114.416 Y85.521 E.19249
G1 X114.439 Y85.563 E.00191
G1 E-3.85 F3600
;WIPE_START
G1 F6720
G1 X114.468 Y85.616 E-.03075
G1 X114.498 Y85.671 E-.03188
G1 X114.594 Y85.699 E-.05089
G1 X117.613 Y85.699 E-1.53648
;WIPE_END
G1 Z.5 F8400
G1 X117.616 Y67.995
G1 Z.3
G1 E5.5 F2400
;TYPE:Support material
;WIDTH:0.42
G1 F1800
G1 X117.616 Y71.344 E.13369
G1 X102.036 Y71.344 E.62194
G1 X102.036 Y67.995 E.13369
G1 X117.562 Y67.995 E.61979
G1 X116.938 Y71.184 F8400
G1 F1800
G1 X116.938 Y68.315 E.11453
G1 X116.543 Y68.315 E.01577
G1 X116.543 Y71.024 E.10814
G1 X116.148 Y71.024 E.01577
G1 X116.148 Y68.315 E.10814
G1 X115.753 Y68.315 E.01577
G1 X115.753 Y71.024 E.10814
G1 X115.358 Y71.024 E.01577
G1 X115.358 Y68.315 E.10814
G1 X114.963 Y68.315 E.01577
G1 X114.963 Y71.024 E.10814
G1 X114.567 Y71.024 E.01581
G1 X114.567 Y68.315 E.10814
G1 X114.172 Y68.315 E.01577
G1 X114.172 Y71.024 E.10814
G1 X113.777 Y71.024 E.01577
G1 X113.777 Y68.315 E.10814
G1 X113.382 Y68.315 E.01577
G1 X113.382 Y71.024 E.10814
G1 X112.987 Y71.024 E.01577
G1 X112.987 Y68.315 E.10814
G1 X112.592 Y68.315 E.01577
G1 X112.592 Y71.024 E.10814
G1 X112.197 Y71.024 E.01577
G1 X112.197 Y68.315 E.10814
G1 X111.801 Y68.315 E.01581
G1 X111.801 Y71.024 E.10814
G1 X111.406 Y71.024 E.01577
G1 X111.406 Y68.315 E.10814
G1 X111.011 Y68.315 E.01577
G1 X111.011 Y71.024 E.10814
G1 X110.616 Y71.024 E.01577
G1 X110.616 Y68.315 E.10814
G1 X110.221 Y68.315 E.01577
G1 X110.221 Y71.024 E.10814
G1 X109.826 Y71.024 E.01577
G1 X109.826 Y68.315 E.10814
G1 X109.431 Y68.315 E.01577
G1 X109.431 Y71.024 E.10814
G1 X109.036 Y71.024 E.01577
G1 X109.036 Y68.315 E.10814
G1 X108.64 Y68.315 E.01581
G1 X108.64 Y71.024 E.10814
G1 X108.245 Y71.024 E.01577
G1 X108.245 Y68.315 E.10814
G1 X107.85 Y68.315 E.01577
G1 X107.85 Y71.024 E.10814
G1 X107.455 Y71.024 E.01577
G1 X107.455 Y68.315 E.10814
G1 X107.06 Y68.315 E.01577
G1 X107.06 Y71.024 E.10814
G1 X106.665 Y71.024 E.01577
G1 X106.665 Y68.315 E.10814
G1 X106.27 Y68.315 E.01577
G1 X106.27 Y71.024 E.10814
G1 X105.875 Y71.024 E.01577
G1 X105.875 Y68.315 E.10814
G1 X105.479 Y68.315 E.01581
G1 X105.479 Y71.024 E.10814
G1 X105.084 Y71.024 E.01577
G1 X105.084 Y68.315 E.10814
G1 X104.689 Y68.315 E.01577
G1 X104.689 Y71.024 E.10814
G1 X104.294 Y71.024 E.01577
G1 X104.294 Y68.315 E.10814
G1 X103.899 Y68.315 E.01577
G1 X103.899 Y71.024 E.10814
G1 X103.504 Y71.024 E.01577
G1 X103.504 Y68.315 E.10814
G1 X103.109 Y68.315 E.01577
G1 X103.109 Y71.024 E.10814
G1 X102.713 Y71.024 E.01581
G1 X102.713 Y68.155 E.11453
G1 E-3.85 F3600
;WIPE_START
G1 F6720
G1 X102.713 Y71.024 E-1.46012
G1 X103.086 Y71.024 E-.18988
;WIPE_END
G1 Z.5 F8400
G1 X93.025 Y72.574
G1 Z.3
G1 E5.5 F2400
;TYPE:Perimeter
;WIDTH:0.424134
G1 F1800
G1 X93.206 Y72.814 E.01214
G1 X93.4 Y72.845 E.00793
;WIDTH:0.397548
G1 X93.594 Y72.876 E.00735
;WIDTH:0.370963
G1 X126.058 Y72.876 E1.11724
;WIDTH:0.397549
G1 X126.252 Y72.845 E.00735
;WIDTH:0.424135
G1 X126.445 Y72.814 E.00789
G1 X126.703 Y72.473 E.01727
G1 X126.703 Y73.156 E.02758
G1 X126.381 Y73.169 E.01301
;WIDTH:0.397549
G1 X126.058 Y73.182 E.01209
;WIDTH:0.370963
G1 X93.594 Y73.182 E1.11724
;WIDTH:0.397548
G1 X93.271 Y73.169 E.01209
;WIDTH:0.424134
G1 X92.949 Y73.156 E.01301
G1 X92.948 Y72.473 E.02758
G1 X92.989 Y72.526 E.00271
G1 X93.245 Y72.354 F8400
;WIDTH:0.44859
G1 F1800
G1 X93.362 Y72.492 E.0078
;WIDTH:0.42
G1 X93.594 Y72.545 E.0095
G1 X126.058 Y72.545 E1.29594
G1 X126.29 Y72.492 E.0095
;WIDTH:0.451502
G1 X126.452 Y72.3 E.01092
;WIDTH:0.483005
G1 X126.614 Y72.109 E.01177
G1 X126.62 Y72.011 E.00461
;WIDTH:0.478279
G1 X126.62 Y69.606 E.11174
;WIDTH:0.484063
G1 X126.623 Y69.019 E.02765
G1 X127.058 Y68.952 E.02073
G1 X127.034 Y69.612 E.03111
;WIDTH:0.478279
G1 X127.033 Y72.224 E.12136
;WIDTH:0.477183
G1 X127.047 Y72.6 E.01744
;WIDTH:0.448591
G1 X127.061 Y72.976 E.01623
;WIDTH:0.42
G1 X127.061 Y73.513 E.02144
G1 X92.591 Y73.513 E1.37602
G1 X92.591 Y72.976 E.02144
;WIDTH:0.44859
G1 X92.605 Y72.494 E.0208
;WIDTH:0.47718
G1 X92.619 Y72.011 E.02239
;WIDTH:0.478275
G1 X92.618 Y69.591 E.11244
;WIDTH:0.489658
G1 X92.584 Y68.946 E.03083
G1 X92.63 Y68.985 E.00288
G1 X93.026 Y69.022 E.01899
G1 X93.032 Y69.611 E.02812
;WIDTH:0.478275
G1 X93.032 Y72.103 E.11578
;WIDTH:0.47718
G1 X93.197 Y72.297 E.0118
;WIDTH:0.44859
G1 X93.206 Y72.308 E.00061
G1 X93.476 Y72.107 F8400
;TYPE:External perimeter
;WIDTH:0.42
G1 F1800
G1 X93.516 Y72.171 E.00301
G1 X93.594 Y72.189 E.0032
G1 X126.124 Y72.189 E1.29857
G1 X126.236 Y72.011 E.0084
G1 X126.235 Y68.665 E.13357
G1 X126.986 Y68.597 E.0301
G1 X127.139 Y68.463 E.00812
;WIDTH:0.419695
G1 X127.185 Y67.674 E.03152
;WIDTH:0.414456
G1 X127.482 Y67.668 E.01167
G1 X127.495 Y67.964 E.01164
G1 X127.483 Y68.519 E.02181
;WIDTH:0.42
G1 X127.418 Y69.612 E.04371
G1 X127.416 Y73.869 E.16994
G1 X92.236 Y73.869 E1.40436
G1 X92.233 Y69.606 E.17018
G1 X92.149 Y68.2 E.05623
;WIDTH:0.419758
G1 X92.17 Y67.668 E.02124
;WIDTH:0.414457
G1 X92.466 Y67.674 E.01163
G1 X92.507 Y68.419 E.02932
;WIDTH:0.42
G1 X92.665 Y68.597 E.0095
G1 X93.417 Y68.665 E.03014
G1 X93.416 Y72.011 E.13357
G1 X93.444 Y72.056 E.00212
;LAYER_CHANGE
;Z:0.46
;HEIGHT:0.16
G1 E-3.85 F3600
;WIPE_START
G1 F6720
G1 X93.476 Y72.107 E-.03064
G1 X93.516 Y72.171 E-.03841
G1 X93.594 Y72.189 E-.04074
G1 X96.62 Y72.189 E-1.54021
;WIPE_END
G1 Z.46 F8400
M140 S45 ; set bed temperature
G1 Z.66
G1 X90.581 Y72.056
G1 Z.46
G1 E5.5 F2400
;TYPE:Skirt/Brim
;WIDTH:0.42
G1 F2700
G1 X90.581 Y67.279 E.1103
G1 X90.965 Y66.38 E.02257
G1 X91.826 Y66.034 E.02142
G1 X127.826 Y66.034 E.8312
G1 X128.725 Y66.418 E.02257
G1 X129.07 Y67.279 E.02142
G1 X129.07 Y92.289 E.57746
G1 X128.687 Y93.188 E.02256
G1 X127.826 Y93.533 E.02142
G1 X91.826 Y93.533 E.8312
G1 X90.927 Y93.149 E.02257
G1 X90.581 Y92.289 E.0214
G1 X90.581 Y72.116 E.46577
G1 X90.937 Y72.116 F8400
G1 F2700
G1 X90.937 Y67.279 E.11168
G1 X91.314 Y66.552 E.01891
G1 X91.826 Y66.39 E.0124
G1 X127.826 Y66.39 E.8312
G1 X128.553 Y66.767 E.01891
G1 X128.715 Y67.279 E.0124
G1 X128.715 Y92.289 E.57746
G1 X128.337 Y93.016 E.01892
G1 X127.826 Y93.178 E.01238
G1 X91.826 Y93.178 E.8312
G1 X91.099 Y92.8 E.01892
