; generated by PrusaSlicer 2.9.4 on 2026-01-10 at 19:42:12 UTC

; 

; external perimeters extrusion width = 0.45mm
; perimeters extrusion width = 0.45mm
; infill extrusion width = 0.45mm
; solid infill extrusion width = 0.45mm
; top infill extrusion width = 0.40mm
; support material extrusion width = 0.35mm
; first layer extrusion width = 0.42mm

; external perimeters extrusion width = 0.45mm
; perimeters extrusion width = 0.45mm
; infill extrusion width = 0.45mm
; solid infill extrusion width = 0.45mm
; top infill extrusion width = 0.40mm
; support material extrusion width = 0.35mm
; first layer extrusion width = 0.42mm

M190 S60 ; set bed temperature and wait for it to be reached
M104 S190 ; set temperature
;TYPE:Custom
G28 ; home all axes
G1 Z5 F5000 ; lift nozzle
M109 S190 ; set temperature and wait for it to be reached
G21 ; set units to millimeters
G90 ; use absolute coordinates
M83 ; use relative distances for extrusion
T1
M104 S190 ; set temperature
; Filament gcode
M107
;LAYER_CHANGE
;Z:0.3
;HEIGHT:0.3
G1 E-5.5 F3600
G1 Z.5 F8400
G1 X91.139 Y99.101
G1 Z.3
G1 E5.5 F2400
;TYPE:Skirt/Brim
;WIDTH:0.42
G1 F1800
G1 X92 Y98.755 E.03704
G1 X128 Y98.755 E1.4371
G1 X128.899 Y99.139 E.03902
G1 X129.245 Y100 E.03704
G1 X129.245 Y120 E.79839
G1 X128.861 Y120.899 E.03902
G1 X128 Y121.245 E.03704
G1 X92 Y121.245 E1.4371
G1 X91.101 Y120.861 E.03902
G1 X90.755 Y120 E.03704
G1 X90.755 Y100 E.79839
G1 X91.116 Y99.156 E.03664
G1 X91.457 Y99.333 F8400
G1 F1800
G1 X91.488 Y99.273 E.0027
G1 X92 Y99.111 E.02144
G1 X128 Y99.111 E1.4371
G1 X128.727 Y99.488 E.03269
G1 X128.889 Y100 E.02144
G1 X128.889 Y120 E.79839
G1 X128.512 Y120.727 E.03269
G1 X128 Y120.889 E.02144
G1 X92 Y120.889 E1.4371
G1 X91.273 Y120.512 E.03269
G1 X91.111 Y120 E.02144
G1 X91.111 Y100 E.79839
G1 X91.429 Y99.387 E.02757
G1 X91.755 Y99.712 F8400
G1 F1800
G1 X92 Y99.467 E.01383
G1 X128 Y99.467 E1.4371
G1 X128.533 Y100 E.03009
G1 X128.533 Y120 E.79839
G1 X128 Y120.533 E.03009
G1 X92 Y120.533 E1.4371
G1 X91.467 Y120 E.03009
G1 X91.467 Y100 E.79839
G1 X91.712 Y99.754 E.01386
G1 X91.89 Y99.932 F8400
G1 F1800
G1 X92 Y99.822 E.00621
G1 X128 Y99.822 E1.4371
G1 X128.178 Y100 E.01005
G1 X128.178 Y120 E.79839
G1 X128 Y120.178 E.01005
G1 X92 Y120.178 E1.4371
G1 X91.822 Y120 E.01005
G1 X91.822 Y100 E.79839
G1 X91.848 Y99.975 E.00144
G1 E-3.85 F3600
;WIPE_START
G1 F6720
G1 X91.89 Y99.932 E-.03059
G1 X92 Y99.822 E-.07917
G1 X95.026 Y99.822 E-1.54024
;WIPE_END
G1 Z.5 F8400
G1 X114.565 Y103.065
G1 Z.3
G1 E5.5 F2400
;TYPE:Support material
G1 F1800
G1 X105.435 Y103.065 E.36446
G1 X105.435 Y101.935 E.04511
G1 X114.565 Y101.935 E.36446
G1 X114.565 Y103.012 E.04299
G1 X113.951 Y102.905 F8400
G1 F1800
G1 X113.951 Y102.255 E.02595
G1 X113.556 Y102.255 E.01577
G1 X113.556 Y102.745 E.01956
G1 X113.161 Y102.745 E.01577
G1 X113.161 Y102.255 E.01956
G1 X112.766 Y102.255 E.01577
G1 X112.766 Y102.745 E.01956
G1 X112.371 Y102.745 E.01577
G1 X112.371 Y102.255 E.01956
G1 X111.976 Y102.255 E.01577
G1 X111.976 Y102.745 E.01956
G1 X111.581 Y102.745 E.01577
G1 X111.581 Y102.255 E.01956
G1 X111.185 Y102.255 E.01581
G1 X111.185 Y102.745 E.01956
G1 X110.79 Y102.745 E.01577
G1 X110.79 Y102.255 E.01956
G1 X110.395 Y102.255 E.01577
G1 X110.395 Y102.745 E.01956
G1 X110 Y102.745 E.01577
G1 X110 Y102.255 E.01956
G1 X109.605 Y102.255 E.01577
G1 X109.605 Y102.745 E.01956
G1 X109.21 Y102.745 E.01577
G1 X109.21 Y102.255 E.01956
G1 X108.815 Y102.255 E.01577
G1 X108.815 Y102.745 E.01956
G1 X108.419 Y102.745 E.01581
G1 X108.419 Y102.255 E.01956
G1 X108.024 Y102.255 E.01577
G1 X108.024 Y102.745 E.01956
G1 X107.629 Y102.745 E.01577
G1 X107.629 Y102.255 E.01956
G1 X107.234 Y102.255 E.01577
G1 X107.234 Y102.745 E.01956
G1 X106.839 Y102.745 E.01577
G1 X106.839 Y102.255 E.01956
G1 X106.444 Y102.255 E.01577
G1 X106.444 Y102.745 E.01956
G1 X106.049 Y102.745 E.01577
G1 X106.049 Y102.095 E.02595
G1 E-3.85 F3600
;WIPE_START
G1 F6720
G1 X106.049 Y102.745 E-.3308
G1 X106.444 Y102.745 E-.20103
G1 X106.444 Y102.255 E-.24938
G1 X106.839 Y102.255 E-.20103
G1 X106.839 Y102.745 E-.24938
G1 X107.234 Y102.745 E-.20103
G1 X107.234 Y102.318 E-.21735
;WIPE_END
G1 Z.5 F8400
G1 X126.048 Y101.228
G1 Z.3
G1 E5.5 F2400
;TYPE:Solid infill
;WIDTH:0.422551
G1 F1800
G1 X126.612 Y101.792 E.03207
G1 X126.612 Y102.299 E.02038
G1 X125.701 Y101.388 E.0518
G1 X125.195 Y101.388 E.02034
G1 X126.612 Y102.805 E.08057
G1 X126.612 Y103.312 E.02038
G1 X124.688 Y101.388 E.1094
G1 X124.182 Y101.388 E.02034
G1 X126.612 Y103.818 E.13817
G1 X126.612 Y104.325 E.02038
G1 X123.675 Y101.388 E.167
G1 X123.169 Y101.388 E.02034
G1 X126.612 Y104.831 E.19577
G1 X126.612 Y105.338 E.02038
G1 X122.662 Y101.388 E.22459
G1 X122.156 Y101.388 E.02034
G1 X126.612 Y105.844 E.25337
G1 X126.612 Y106.351 E.02038
G1 X121.649 Y101.388 E.28219
G1 X121.143 Y101.388 E.02034
G1 X126.612 Y106.857 E.31096
G1 X126.612 Y107.364 E.02038
G1 X120.636 Y101.388 E.33979
G1 X120.129 Y101.388 E.02038
G1 X126.612 Y107.871 E.36862
G1 X126.612 Y108.377 E.02034
G1 X119.623 Y101.388 E.39739
G1 X119.116 Y101.388 E.02038
G1 X126.612 Y108.884 E.42622
G1 X126.612 Y109.39 E.02034
G1 X118.61 Y101.388 E.45499
G1 X118.103 Y101.388 E.02038
G1 X126.612 Y109.897 E.48382
G1 X126.612 Y110.403 E.02034
G1 X117.597 Y101.388 E.51259
G1 X117.09 Y101.388 E.02038
G1 X126.612 Y110.91 E.54141
G1 X126.612 Y111.416 E.02034
G1 X116.584 Y101.388 E.57019
G1 X116.388 Y101.388 E.00788
G1 X116.388 Y101.699 E.0125
G1 X126.612 Y111.923 E.58133
G1 X126.612 Y112.429 E.02034
G1 X116.388 Y102.205 E.58133
G1 X116.388 Y102.712 E.02038
G1 X126.612 Y112.936 E.58133
G1 X126.612 Y113.442 E.02034
G1 X116.388 Y103.218 E.58133
G1 X116.388 Y103.725 E.02038
G1 X126.612 Y113.949 E.58133
G1 X126.612 Y114.455 E.02034
G1 X116.3 Y104.144 E.58631
G1 X116.251 Y104.278 E.00574
G1 X116.117 Y104.467 E.00931
G1 X126.612 Y114.962 E.59674
G1 X126.612 Y115.468 E.02034
G1 X115.842 Y104.699 E.61235
G1 X115.678 Y104.8 E.00774
G1 X115.485 Y104.848 E.008
G1 X126.612 Y115.975 E.63267
G1 X126.612 Y116.482 E.02038
G1 X115.013 Y104.883 E.65951
G1 X114.507 Y104.883 E.02034
G1 X126.612 Y116.988 E.68828
G1 X126.612 Y117.495 E.02038
G1 X114.001 Y104.883 E.71708
G1 X113.494 Y104.884 E.02038
G1 X126.612 Y118.001 E.74585
G1 X126.612 Y118.508 E.02038
G1 X112.988 Y104.884 E.77465
G1 X112.482 Y104.884 E.02034
G1 X126.21 Y118.612 E.78057
G1 X125.703 Y118.612 E.02038
G1 X111.976 Y104.884 E.78054
G1 X111.469 Y104.885 E.02038
G1 X125.197 Y118.612 E.78054
G1 X124.69 Y118.612 E.02038
G1 X110.963 Y104.885 E.78051
G1 X110.457 Y104.885 E.02034
G1 X124.184 Y118.612 E.78051
G1 X123.677 Y118.612 E.02038
G1 X109.951 Y104.885 E.78048
G1 X109.444 Y104.886 E.02038
G1 X123.171 Y118.612 E.78048
G1 X122.664 Y118.612 E.02038
G1 X108.938 Y104.886 E.78045
G1 X108.432 Y104.886 E.02034
G1 X122.158 Y118.612 E.78045
G1 X121.651 Y118.612 E.02038
G1 X107.925 Y104.886 E.78045
G1 X107.419 Y104.887 E.02034
G1 X121.145 Y118.612 E.78042
G1 X120.638 Y118.612 E.02038
G1 X106.913 Y104.887 E.78039
G1 X106.407 Y104.887 E.02034
G1 X120.132 Y118.612 E.78039
G1 X119.625 Y118.612 E.02038
G1 X105.9 Y104.887 E.78039
G1 X105.394 Y104.888 E.02034
G1 X119.119 Y118.612 E.78037
G1 X118.612 Y118.612 E.02038
G1 X104.723 Y104.723 E.78972
G1 E-3.85 F3600
;WIPE_START
G1 F6720
G1 X107.016 Y107.016 E-1.65
;WIPE_END
G1 Z.5 F8400
G1 X103.772 Y101.746
G1 Z.3
G1 E5.5 F2400
G1 F1800
G1 X103.414 Y101.388 E.02036
G1 X102.907 Y101.388 E.02038
G1 X103.612 Y102.093 E.04009
G1 X103.612 Y102.599 E.02034
G1 X102.401 Y101.388 E.06886
G1 X101.894 Y101.388 E.02038
G1 X103.612 Y103.106 E.09768
G1 X103.612 Y103.612 E.02034
G1 X101.388 Y101.388 E.12646
G1 X100.881 Y101.388 E.02038
G1 X118.105 Y118.612 E.97935
G1 X117.599 Y118.612 E.02034
G1 X100.375 Y101.388 E.97935
G1 X99.868 Y101.388 E.02038
G1 X117.092 Y118.612 E.97935
G1 X116.586 Y118.612 E.02034
G1 X99.362 Y101.388 E.97935
G1 X98.855 Y101.388 E.02038
G1 X116.079 Y118.612 E.97935
G1 X115.573 Y118.612 E.02034
G1 X98.349 Y101.388 E.97935
G1 X97.842 Y101.388 E.02038
G1 X107.081 Y110.626 E.5253
G1 X107.376 Y110.7 E.01223
G1 X107.567 Y110.802 E.00871
G1 X107.728 Y110.929 E.00824
G1 X107.856 Y111.072 E.00772
G1 X107.953 Y111.224 E.00725
G1 X108.06 Y111.51 E.01228
G1 X108.072 Y111.618 E.00437
G1 X115.066 Y118.612 E.39767
G1 X114.56 Y118.612 E.02034
G1 X108.088 Y112.14 E.36799
G1 X108.088 Y112.647 E.02038
G1 X114.053 Y118.612 E.33917
G1 X113.547 Y118.612 E.02034
G1 X108.088 Y113.153 E.3104
G1 X108.088 Y113.66 E.02038
G1 X113.04 Y118.612 E.28157
G1 X112.534 Y118.612 E.02034
G1 X108.088 Y114.166 E.2528
G1 X108.088 Y114.673 E.02038
G1 X112.027 Y118.612 E.22397
G1 X111.521 Y118.612 E.02034
G1 X108.088 Y115.179 E.1952
G1 X108.088 Y115.686 E.02038
G1 X111.014 Y118.612 E.16637
G1 X110.508 Y118.612 E.02034
G1 X108.088 Y116.192 E.1376
G1 X108.042 Y116.558 E.01483
G1 X108.01 Y116.622 E.00288
G1 X110.001 Y118.612 E.11318
G1 X109.494 Y118.612 E.02038
G1 X107.832 Y116.95 E.0945
G1 X107.559 Y117.183 E.01443
G1 X108.988 Y118.612 E.08125
G1 X108.481 Y118.612 E.02038
G1 X107.213 Y117.344 E.0721
G1 X107.135 Y117.371 E.00332
G1 X106.751 Y117.388 E.01545
G1 X107.975 Y118.612 E.0696
G1 X107.468 Y118.612 E.02038
G1 X106.244 Y117.388 E.0696
G1 X105.738 Y117.388 E.02034
G1 X106.962 Y118.612 E.0696
G1 X106.455 Y118.612 E.02038
G1 X105.231 Y117.388 E.0696
G1 X104.725 Y117.388 E.02034
G1 X105.949 Y118.612 E.0696
G1 X105.442 Y118.612 E.02038
G1 X104.218 Y117.388 E.0696
G1 X103.712 Y117.388 E.02034
G1 X104.936 Y118.612 E.0696
G1 X104.429 Y118.612 E.02038
G1 X103.205 Y117.388 E.0696
G1 X102.699 Y117.388 E.02034
G1 X103.923 Y118.612 E.0696
G1 X103.416 Y118.612 E.02038
G1 X102.192 Y117.388 E.0696
G1 X101.685 Y117.388 E.02038
G1 X102.91 Y118.612 E.06962
G1 X102.403 Y118.612 E.02038
G1 X101.179 Y117.388 E.0696
G1 X100.672 Y117.388 E.02038
G1 X101.897 Y118.612 E.06962
G1 X101.39 Y118.612 E.02038
G1 X100.166 Y117.388 E.0696
G1 X99.659 Y117.388 E.02038
G1 X100.883 Y118.612 E.0696
G1 X100.377 Y118.612 E.02034
G1 X99.153 Y117.388 E.0696
G1 X98.646 Y117.388 E.02038
G1 X99.87 Y118.612 E.0696
G1 X99.364 Y118.612 E.02034
G1 X97.98 Y117.228 E.07869
G1 E-3.85 F3600
;WIPE_START
G1 F6720
G1 X99.364 Y118.612 E-.99611
G1 X99.87 Y118.612 E-.25752
G1 X99.319 Y118.061 E-.39637
;WIPE_END
G1 Z.5 F8400
G1 X106.72 Y110.772
G1 Z.3
G1 E5.5 F2400
G1 F1800
G1 X97.336 Y101.388 E.53357
G1 X96.829 Y101.388 E.02038
G1 X106.053 Y110.612 E.52447
G1 X105.547 Y110.612 E.02034
G1 X96.323 Y101.388 E.52447
G1 X95.816 Y101.388 E.02038
G1 X105.04 Y110.612 E.52447
G1 X104.534 Y110.612 E.02034
G1 X95.31 Y101.388 E.52447
G1 X94.803 Y101.388 E.02038
G1 X104.027 Y110.612 E.52447
G1 X103.521 Y110.612 E.02034
G1 X94.296 Y101.388 E.5245
G1 X93.79 Y101.388 E.02034
G1 X103.014 Y110.612 E.52447
G1 X102.508 Y110.612 E.02034
G1 X93.388 Y101.492 E.51856
G1 X93.388 Y101.999 E.02038
G1 X102.001 Y110.612 E.48973
G1 X101.494 Y110.612 E.02038
G1 X93.388 Y102.506 E.4609
G1 X93.388 Y103.012 E.02034
G1 X100.988 Y110.612 E.43213
G1 X100.481 Y110.612 E.02038
G1 X93.388 Y103.519 E.4033
G1 X93.388 Y104.025 E.02034
G1 X99.975 Y110.612 E.37453
G1 X99.468 Y110.612 E.02038
G1 X93.388 Y104.532 E.3457
G1 X93.388 Y105.038 E.02034
G1 X98.962 Y110.612 E.31693
G1 X98.455 Y110.612 E.02038
G1 X93.388 Y105.545 E.28811
G1 X93.388 Y106.051 E.02034
G1 X97.949 Y110.612 E.25934
G1 X97.59 Y110.625 E.01444
G1 X97.482 Y110.652 E.00448
G1 X93.388 Y106.558 E.23278
G1 X93.388 Y107.064 E.02034
G1 X97.132 Y110.808 E.21288
G1 X96.97 Y110.931 E.00818
G1 X96.87 Y111.053 E.00634
G1 X93.388 Y107.571 E.19798
G1 X93.388 Y108.077 E.02034
G1 X96.687 Y111.377 E.18761
G1 X96.657 Y111.444 E.00295
G1 X96.612 Y111.808 E.01475
G1 X93.388 Y108.584 E.18331
G1 X93.388 Y109.09 E.02034
G1 X96.612 Y112.315 E.18334
G1 X96.612 Y112.821 E.02034
G1 X93.388 Y109.597 E.18331
G1 X93.388 Y110.103 E.02034
G1 X96.612 Y113.328 E.18334
G1 X96.612 Y113.834 E.02034
G1 X93.388 Y110.61 E.18331
G1 X93.388 Y111.117 E.02038
G1 X96.612 Y114.341 E.18331
G1 X96.612 Y114.847 E.02034
G1 X93.388 Y111.623 E.18331
G1 X93.388 Y112.13 E.02038
G1 X96.612 Y115.354 E.18331
G1 X96.612 Y115.86 E.02034
G1 X93.388 Y112.636 E.18331
G1 X93.388 Y113.143 E.02038
G1 X96.625 Y116.379 E.18403
G1 X96.652 Y116.534 E.00633
G1 X96.829 Y116.909 E.01667
G1 X97.211 Y117.248 E.02053
G1 X97.591 Y117.345 E.01577
G1 X98.857 Y118.612 E.07201
G1 X98.351 Y118.612 E.02034
G1 X93.388 Y113.649 E.28219
G1 X93.388 Y114.156 E.02038
G1 X97.844 Y118.612 E.25337
G1 X97.338 Y118.612 E.02034
G1 X93.388 Y114.662 E.22459
G1 X93.388 Y115.169 E.02038
G1 X96.831 Y118.612 E.19577
G1 X96.325 Y118.612 E.02034
G1 X93.388 Y115.675 E.167
G1 X93.388 Y116.182 E.02038
G1 X95.818 Y118.612 E.13817
G1 X95.312 Y118.612 E.02034
G1 X93.388 Y116.688 E.1094
G1 X93.388 Y117.195 E.02038
G1 X94.805 Y118.612 E.08057
G1 X94.299 Y118.612 E.02034
G1 X93.388 Y117.701 E.0518
G1 X93.388 Y118.208 E.02038
G1 X93.952 Y118.772 E.03207
G1 E-3.85 F3600
;WIPE_START
G1 F6720
G1 X93.388 Y118.208 E-.40593
G1 X93.388 Y117.701 E-.25803
G1 X94.299 Y118.612 E-.65568
G1 X94.805 Y118.612 E-.25752
G1 X94.704 Y118.511 E-.07284
;WIPE_END
G1 Z.5 F8400
G1 X115.321 Y101.179
G1 Z.3
G1 E5.5 F2400
;TYPE:External perimeter
;WIDTH:0.42
G1 F1800
G1 X115.41 Y101.268 E.00502
G1 X115.41 Y103.732 E.09836
G1 X115.348 Y103.867 E.00593
G1 X115.232 Y103.91 E.00494
G1 X104.768 Y103.91 E.41772
G1 X104.631 Y103.845 E.00605
G1 X104.59 Y103.732 E.0048
G1 X104.59 Y101.268 E.09836
G1 X104.768 Y101.09 E.01005
G1 X115.232 Y101.09 E.41772
G1 X115.279 Y101.136 E.00263
G1 E-3.85 F3600
;WIPE_START
G1 F6720
G1 X115.321 Y101.179 E-.03059
G1 X115.41 Y101.268 E-.06406
G1 X115.41 Y103.732 E-1.254
G1 X115.348 Y103.867 E-.0756
G1 X115.232 Y103.91 E-.06296
G1 X114.912 Y103.91 E-.16279
;WIPE_END
G1 Z.5 F8400
G1 X107.543 Y116.852
G1 Z.3
G1 E5.5 F2400
;TYPE:Perimeter
G1 F1800
G1 X107.351 Y117.017 E.01011
G1 X106.932 Y117.121 E.01723
G1 X97.768 Y117.121 E.36582
G1 X97.34 Y117.011 E.01764
G1 X97.046 Y116.751 E.01567
G1 X96.879 Y116.354 E.01719
G1 X96.879 Y111.768 E.18307
G1 X96.914 Y111.519 E.01004
G1 X97.013 Y111.298 E.00967
G1 X97.155 Y111.124 E.00897
G1 X97.479 Y110.927 E.01514
G1 X97.768 Y110.879 E.01169
G1 X106.932 Y110.879 E.36582
G1 X107.273 Y110.947 E.01388
G1 X107.544 Y111.123 E.0129
G1 X107.716 Y111.348 E.01131
G1 X107.821 Y111.689 E.01424
G1 X107.821 Y116.232 E.18135
G1 X107.786 Y116.481 E.01004
G1 X107.643 Y116.766 E.01273
G1 X107.589 Y116.813 E.00286
G1 X107.297 Y116.606 F8400
G1 F1800
G1 X107.183 Y116.703 E.00598
G1 X106.932 Y116.766 E.01033
G1 X97.768 Y116.766 E.36582
G1 X97.511 Y116.7 E.01059
G1 X97.335 Y116.543 E.00941
G1 X97.234 Y116.305 E.01032
G1 X97.234 Y111.768 E.18111
G1 X97.315 Y111.486 E.01171
G1 X97.497 Y111.308 E.01016
G1 X97.768 Y111.234 E.01121
G1 X106.932 Y111.234 E.36582
G1 X107.137 Y111.275 E.00835
G1 X107.358 Y111.447 E.01118
G1 X107.466 Y111.718 E.01165
G1 X107.466 Y116.232 E.1802
G1 X107.444 Y116.382 E.00605
G1 X107.359 Y116.552 E.00759
G1 X107.342 Y116.567 E.00091
G1 X107.026 Y116.363 F8400
;TYPE:External perimeter
G1 F1800
G1 X106.932 Y116.41 E.0042
G1 X97.768 Y116.41 E.36582
G1 X97.623 Y116.336 E.0065
G1 X97.59 Y116.232 E.00436
G1 X97.59 Y111.768 E.1782
G1 X97.645 Y111.639 E.0056
G1 X97.768 Y111.59 E.00529
G1 X106.932 Y111.59 E.36582
G1 X107.074 Y111.661 E.00634
G1 X107.11 Y111.768 E.00451
G1 X107.11 Y116.232 E.1782
G1 X107.076 Y116.333 E.00425
G1 E-3.85 F3600
;WIPE_START
G1 F6720
G1 X107.026 Y116.363 E-.02968
G1 X106.932 Y116.41 E-.05349
G1 X103.853 Y116.41 E-1.56683
;WIPE_END
G1 Z.5 F8400
G1 X93.121 Y101.121
G1 Z.3
G1 E5.5 F2400
;TYPE:Perimeter
G1 F1800
G1 X104.002 Y101.121 E.43436
G1 X103.879 Y101.268 E.00765
G1 X103.879 Y103.876 E.10411
G1 X104.006 Y104.19 E.01352
G1 X104.181 Y104.4 E.01091
G1 X104.444 Y104.56 E.01229
G1 X104.768 Y104.621 E.01316
G1 X115.321 Y104.617 E.42127
G1 X115.651 Y104.516 E.01378
G1 X115.885 Y104.336 E.01179
G1 X116.063 Y104.049 E.01348
G1 X116.121 Y103.732 E.01286
G1 X116.121 Y101.268 E.09836
G1 X115.975 Y101.121 E.00827
G1 X126.879 Y101.121 E.43528
G1 X126.879 Y118.879 E.70889
G1 X93.121 Y118.879 E1.3476
G1 X93.121 Y101.181 E.70649
G1 E-3.85 F3600
;WIPE_START
G1 F6720
G1 X93.121 Y101.121 E-.03054
